!!!!SEGMENT: pl-wtm--r-263-m_moniuszko-stanislaw--sub-tuum-praesidium.krn
!!!cenid: 18xx:2868
!!!COM: Moniuszko, Stanisław
!!!COM-rismID: pe30008351
!!!CDT: 1819/05/05-1872/06/04
!!!CNT: Polish
!!!OTL: Sub tuum praesidium
!!!PDT:
!!!AGN:
!!!SMS-siglum: PL-Wtm
!!!SMS-shelfmark: R 263/M
!!!SMS-shelfwork: W
!!!SMS-variant:
!!!SMS-altvar:
!!!NIFC-rismSourceID: 1001099295
!!!NIFC-islandoraID:
!!!URL-pdf-islandora:
!!!URL-scan:
!!!ONB-nifc:
!!!OMD: Andante.
!!!AIN: 1 bass 1 cello 1 clars 1 cor 1 flt 1 oboe 1 timpa 1 tromp 1 viola 2 violn 1 vox
!!!key:
**kern	**dynam	**kern	**dynam	**kern	**text	**dynam	**kern	**dynam	**kern	**dynam	**kern	**dynam	**kern	**dynam	**kern	**dynam	**kern	**dynam	**kern	**dynam	**kern	**dynam	**kern	**dynam
*Ibass	*	*Icello	*	*Ivox	*	*	*Iviola	*	*Ivioln	*	*Ivioln	*	*Itimpa	*	*Itromp	*	*Icor	*	*Iclars	*	*Ioboe	*	*Iflt	*
*I"CB.	*	*I"Vcello.	*	*I"[Voce]	*	*	*I"Vla.	*	*I"V. 2.	*	*I"V. 1.	*	*I"Timp.	*	*I"in B. Trombe.	*	*I"in B. Corni.	*	*I"in B. Clarinetti.	*	*I"Oboe.	*	*I"Flauti.	*
*clefF4	*	*clefF4	*	*clefF4	*	*	*clefC3	*	*clefG2	*	*clefG2	*	*clefF4	*	*clefG2	*	*clefG2	*	*clefG2	*	*clefG2	*	*clefG2	*
*ITrd0c0	*	*	*	*	*	*	*	*	*	*	*	*	*	*	*ITrd1c2	*	*ITrd1c2	*	*ITrd1c2	*	*	*	*	*
*k[b-e-]	*	*k[b-e-]	*	*k[b-e-]	*	*	*k[b-e-]	*	*k[b-e-]	*	*k[b-e-]	*	*k[]	*	*k[b-e-]	*	*k[b-e-]	*	*k[b-e-]	*	*k[b-e-]	*	*k[b-e-]	*
*B-:	*	*B-:	*	*B-:	*	*	*B-:	*	*B-:	*	*B-:	*	*B-:	*	*B-:	*	*B-:	*	*B-:	*	*B-:	*	*B-:	*
*M12/8	*	*M12/8	*	*M12/8	*	*	*M12/8	*	*M12/8	*	*M12/8	*	*M12/8	*	*M12/8	*	*M12/8	*	*M12/8	*	*M12/8	*	*M12/8	*
=1	=1	=1	=1	=1	=1	=1	=1	=1	=1	=1	=1	=1	=1	=1	=1	=1	=1	=1	=1	=1	=1	=1	=1	=1
*	*	*	*	*	*	*	*	*	*	*	*	*	*	*	*	*	*tremolo	*	*	*	*	*	*	*
!	!	!	!	!	!	!	!	!	!	!	!	!	!	!	!	!	!	!LO:DY:rj	!	!	!	!	!LO:TX:a:t=P:problem=all\right, middle or left&colon; global	!
1.r	.	4.ryy	.	2.r	.	.	4r	p	4r	p	4r	p	1.ryy	.	1.ryy	.	8ffL 8f\	p	2.r	.	1.ryy	.	1.ryy	.
.	.	.	.	.	.	.	.	.	.	.	.	.	.	.	.	.	8ff 8f\	.	.	.	.	.	.	.
.	.	.	.	.	.	.	8r	.	8r	.	8r	.	.	.	.	.	8ffJ 8f\	.	.	.	.	.	.	.
.	.	(4.E-/	p	.	.	.	(4.E-/	.	(4.A/	.	(4.c/	.	.	.	.	.	8ffL 8f\	.	.	.	.	.	.	.
.	.	.	.	.	.	.	.	.	.	.	.	.	.	.	.	.	8ff 8f\	.	.	.	.	.	.	.
.	.	.	.	.	.	.	.	.	.	.	.	.	.	.	.	.	8ffJ 8f\	.	.	.	.	.	.	.
*	*	*	*	*	*	*	*	*	*	*	*	*	*	*	*	*	*2\right	*	*	*	*	*	*	*
.	.	4.D/	.	4r	.	.	4.D/	.	4.B-/	.	[4.f 4.G/	.	.	.	.	.	8ffL 8f\	.	4r	.	.	.	.	.
.	.	.	.	.	.	.	.	.	.	.	.	.	.	.	.	.	8ff 8f\	>	.	.	.	.	.	.
.	.	.	.	8r	.	.	.	.	.	.	.	.	.	.	.	.	8ff 8f\	.	8r	.	.	.	.	.
!	!	!	!	!	!	!	!	!	!	!	!	!	!	!	!	!	!	!	!LO:TX:a:t=1mo	!LO:DY:rj	!	!	!	!
.	.	4.C/)	.	4.F\	Sub	.	4.C/)	.	4.e-/)	.	4.f_< 4.A/)	.	.	.	.	.	8ff 8f\	.	(4.A/	p	.	.	.	.
.	.	.	.	.	.	.	.	.	.	.	.	.	.	.	.	.	8ff 8f\	.	.	.	.	.	.	.
.	.	.	.	.	.	.	.	.	.	.	.	.	.	.	.	.	8ffJ 8f\	]	.	.	.	.	.	.
*	*	*	*	*	*	*	*	*	*	*	*	*	*	*	*	*	*Xtremolo	*	*	*	*	*	*	*
=2	=2	=2	=2	=2	=2	=2	=2	=2	=2	=2	=2	=2	=2	=2	=2	=2	=2	=2	=2	=2	=2	=2	=2	=2
*	*	*	*	*2\right	*	*	*	*	*tremolo	*	*tremolo	*	*	*	*	*	*	*	*	*	*	*	*	*
!LO:TX:b:t=pizzi.	!	!	!	!	!	!	!	!	!	!	!	!	!	!	!	!	!	!	!	!	!	!	!	!
4BB-/	.	1.BB-	.	2.d\	tu-	.	8r	.	8d/L	.	8f/L]	.	1.ryy	.	1.ryy	.	1.r	.	4B-/)	.	1.ryy	.	1.ryy	.
.	.	.	.	.	.	.	8B-/L	.	8d/	.	8f/	.	.	.	.	.	.	.	.	.	.	.	.	.
8r	.	.	.	.	.	.	8B-/J	.	8d/	.	8f/	.	.	.	.	.	.	.	8r	.	.	.	.	.
*	*	*	*	*	*	*	*tremolo	*	*	*	*	*	*	*	*	*	*	*	*	*	*	*	*	*
4r	.	.	.	.	.	.	8B-/L	.	8d/	.	8f/	.	.	.	.	.	.	.	4r	.	.	.	.	.
.	.	.	.	.	.	.	8B-/	.	8d/	.	8f/	.	.	.	.	.	.	.	.	.	.	.	.	.
8r	.	.	.	.	.	.	8B-/J	.	8d/J	.	8f/J	.	.	.	.	.	.	.	8r	.	.	.	.	.
2.r	.	.	.	4.B-\	-um	.	8B-/L	.	8d/L	.	8f#X/L	.	.	.	.	.	.	.	2.r	.	.	.	.	.
.	.	.	.	.	.	.	8B-/	.	8d/	.	8f#/	.	.	.	.	.	.	.	.	.	.	.	.	.
.	.	.	.	.	.	.	8B-/	.	8d/	.	8f#/	.	.	.	.	.	.	.	.	.	.	.	.	.
.	.	.	.	4.F#X\	prae-	.	8B-/	.	8d/	.	8f#/	.	.	.	.	.	.	.	.	.	.	.	.	.
.	.	.	.	.	.	.	8B-/	.	8d/	.	8f#/	.	.	.	.	.	.	.	.	.	.	.	.	.
.	.	.	.	.	.	.	8B-/J	.	8d/J	.	8f#/J	.	.	.	.	.	.	.	.	.	.	.	.	.
=3	=3	=3	=3	=3	=3	=3	=3	=3	=3	=3	=3	=3	=3	=3	=3	=3	=3	=3	=3	=3	=3	=3	=3	=3
!	!	!	!	!	!	!	!	!	!	!	!	!	!	!	!	!	!	!	!	!	!	!	!LO:TX:b:t=II. b):color=blue	!
4r	.	4BB-/	.	[4.A\	-si-	.	8A/L	.	8e-/L	.	8f#X/L	.	1.ryy	.	1.ryy	.	1.ryy	.	1.ryy	.	1.ryy	.	1.ryy	.
.	.	.	.	.	.	.	8A/	.	8e-/	.	8f#/	.	.	.	.	.	.	.	.	.	.	.	.	.
8r	.	8r	.	.	.	.	8A/J	.	8e-/	.	8f#/J	.	.	.	.	.	.	.	.	.	.	.	.	.
4BB-/	.	4.BB-/	.	4A\]	.	.	8B-/L	.	8e-/	.	8g/L	.	.	.	.	.	.	.	.	.	.	.	.	.
.	.	.	.	.	.	.	8B-/	.	8e-/	.	8g/	.	.	.	.	.	.	.	.	.	.	.	.	.
8r	.	.	.	8G\	-di-	.	8B-/J	.	8e-/J	.	8g/J	.	.	.	.	.	.	.	.	.	.	.	.	.
4D\	.	4.D\	.	4F\	-um	.	8B-/L	.	8d/L	.	8fn/L	.	.	.	.	.	.	.	.	.	.	.	.	.
.	.	.	.	.	.	.	8B-/	.	8d/	.	8f/	.	.	.	.	.	.	.	.	.	.	.	.	.
8r	.	.	.	8r	.	.	8B-/	.	8d/	.	8f/	.	.	.	.	.	.	.	.	.	.	.	.	.
4F\	.	4.F\	.	4r	.	.	8B-/	.	8d/	.	8f/	.	.	.	.	.	.	.	.	.	.	.	.	.
.	.	.	.	.	.	.	8B-/	.	8d/	.	8f/	.	.	.	.	.	.	.	.	.	.	.	.	.
8r	.	.	.	8F\	con-	.	8B-/J	.	8d/J	.	8f/J	.	.	.	.	.	.	.	.	.	.	.	.	.
=4	=4	=4	=4	=4	=4	=4	=4	=4	=4	=4	=4	=4	=4	=4	=4	=4	=4	=4	=4	=4	=4	=4	=4	=4
*	*	*	*	*	*	*	*	*	*	*	*	*	*	*	*	*	*^	*	*	*	*	*	*	*
*2\right	*	*2\right	*	*	*	*	*	*	*	*	*	*	*	*	*	*	*	*	*	*	*	*	*	*	*
!LO:TX:a:t=arco.	!	!	!	!	!	!	!	!	!	!	!	!	!	!	!	!	!	!	!	!	!	!	!	!	!
2.E-\	.	2.E-\	.	4.F\	-fu-	.	8A/L	.	8c/L	.	8f/L	.	1.ryy	.	1.ryy	.	2.r	1.re	.	1.ryy	.	1.ryy	.	1.ryy	.
.	.	.	.	.	.	.	8A/	.	8c/	.	8f/	.	.	.	.	.	.	.	.	.	.	.	.	.	.
.	.	.	.	.	.	.	8A/	.	8c/	.	8f/	.	.	.	.	.	.	.	.	.	.	.	.	.	.
.	.	.	.	4G\	-gi-	.	8A/	.	8c/	.	8f/	.	.	.	.	.	.	.	.	.	.	.	.	.	.
.	.	.	.	.	.	.	8A/	.	8c/	.	8f/	.	.	.	.	.	.	.	.	.	.	.	.	.	.
.	.	.	.	8A\	-mus	.	8A/J	.	8c/J	.	8f/	.	.	.	.	.	.	.	.	.	.	.	.	.	.
*	*	*	*	*	*	*	*Xtremolo	*	*	*	*	*	*	*	*	*	*	*	*	*	*	*	*	*	*
!LO:TX:t=Col Cello	!	!	!	!	!	!	!	!	!	!	!	!	!	!	!	!	!	!	!	!	!	!	!	!	!
4.D\yy	.	4.D\	.	4.B-\	Sanc-	.	8B-/L	.	8B-/L	.	8f/	.	.	.	.	.	4r	.	.	.	.	.	.	.	.
.	.	.	.	.	.	.	8F/	.	8B-/	.	8f/	.	.	.	.	.	.	.	.	.	.	.	.	.	.
.	.	.	.	.	.	.	8F/J	.	8B-/J	.	8f/	.	.	.	.	.	8r	.	.	.	.	.	.	.	.
*	*	*	*	*	*	*	*tremolo	*	*	*	*	*	*	*	*	*	*	*	*	*	*	*	*	*	*
4.GG#X/yy	.	4.GG#X/	.	4.Bn\	-ta	.	8d\L	.	8Bn/L	.	8f/	.	.	.	.	.	4.f/	.	.	.	.	.	.	.	.
.	.	.	.	.	.	.	8d\	.	8B/	.	8f/	.	.	.	.	.	.	.	.	.	.	.	.	.	.
!	!	!	!	!	!	!	!	!	!	!	!	!	!	!	!	!	!LO:TX:a:t=Solo.	!	!	!LO:TX:a:t=dolce.	!	!	!	!LO:TX:a:t=dolce.	!
.	.	.	.	.	.	.	8d\J	.	8B/J	.	8f/J	.	.	.	.	.	.	.	p	.	p	.	.	.	p
=5	=5	=5	=5	=5	=5	=5	=5	=5	=5	=5	=5	=5	=5	=5	=5	=5	=5	=5	=5	=5	=5	=5	=5	=5	=5
*	*	*	*	*	*	*	*	*	*	*	*	*	*	*	*	*	*	*	*	*^	*	*	*	*^	*
4AA/yy	.	4AA/	.	[4.c\	De-	.	8A/L	.	8c/L	.	8f/L	.	1.ryy	.	1.ryy	.	[<4.ff/	1.re	.	4.f/	1.r	.	1.r	.	4.ff\	1.r	.
.	.	.	.	.	.	.	8A/	.	8c/	.	8f/	.	.	.	.	.	.	.	.	.	.	.	.	.	.	.	.
8ryy	.	8r	.	.	.	.	8A/	.	8c/J	.	8f/J	.	.	.	.	.	.	.	.	.	.	.	.	.	.	.	.
*	*	*	*	*	*	*	*	*	*	*	*Xtremolo	*	*	*	*	*	*	*	*	*	*	*	*	*	*	*	*
!	!	!	!	!	!	!	!	!	!	!	!LO:TX:t=P:problem=mixed beam	!	!	!	!	!	!	!	!	!	!	!	!	!	!	!	!
(y2.FF/yy	.	(2.FF/	.	4c\]	.	.	8A/	.	8c/L	.	8cc\L	.	.	.	.	.	4ff/]	.	.	4g/	.	.	.	.	4gg\	.	.
.	.	.	.	.	.	.	8A/	.	8c/	.	8cc\	.	.	.	.	.	.	.	.	.	.	.	.	.	.	.	.
.	.	.	.	16d\LL	-i	.	8A/J	.	8c/J	.	8f/J	.	.	.	.	.	8ee-/	.	.	8a/	.	.	.	.	8aa\	.	.
.	.	.	.	16c\JJ	.	.	.	.	.	.	.	.	.	.	.	.	.	.	.	.	.	.	.	.	.	.	.
*	*	*	*	*	*	*	*	*	*	*	*tremolo	*	*	*	*	*	*	*	*	*	*	*	*	*	*	*	*
.	.	.	.	(4B-\	Ge-	.	8F/L	.	8d/L	.	8f/L	.	.	.	.	.	4.dd/	.	.	4.b-/	.	.	.	.	4.bb-\	.	.
.	.	.	.	.	.	.	8F/	.	8d/	.	8f/	.	.	.	.	.	.	.	.	.	.	.	.	.	.	.	.
.	.	.	.	8A\	.	.	8F/J	.	8d/J	.	8f/	.	.	.	.	.	.	.	.	.	.	.	.	.	.	.	.
*	*	*	*	*	*	*	*Xtremolo	*	*	*	*	*	*	*	*	*	*	*	*	*	*	*	*	*	*	*	*
!	!	!	!	!	!	!	!	!	!	!	!	!	!	!	!	!	!LO:N:vis=4	!	!	!	!	!	!	!	!	!	!
4F\)yy	.	4F\)	.	4G\)	.	.	8F/L	.	8e-/L	.	8f/	.	.	.	.	.	4.cc/	.	.	4.cc/	.	.	.	.	4.ccc\	.	.
.	.	.	.	.	.	.	8G/	.	8e-/	.	8f/	.	.	.	.	.	.	.	.	.	.	.	.	.	.	.	.
8ryy	.	8r	.	8F\	-ni-	.	8A/J	.	8e-/J	.	8f/J	.	.	.	.	.	.	.	.	.	.	.	.	.	.	.	.
*	*	*	*	*	*	*	*	*	*	*	*	*	*	*	*	*	*	*	*	*v	*v	*	*	*	*	*	*
!!LO:PB:g=original
=6	=6	=6	=6	=6	=6	=6	=6	=6	=6	=6	=6	=6	=6	=6	=6	=6	=6	=6	=6	=6	=6	=6	=6	=6	=6	=6
*	*	*	*	*	*	*	*tremolo	*	*	*	*	*	*	*	*	*	*	*	*	*	*	*	*	*2\right	*	*
!	!	!	!	!	!	!	!	!	!	!	!	!	!	!	!	!	!	!	!LO:DY:rj	!	!LO:DY:rj	!	!LO:DY:rj	!	!	!LO:DY:rj
2.BB-/yy	.	2.BB-/	.	4F\	-trix	.	8B-/L	.	8d/L	.	8f/L	.	1.r	.	1.r	.	2.ff/	2.f\	pp	(2.dd/	p	(2.dd/	p	(2.ddd\	1.r	p
.	.	.	.	.	.	.	8B-/	.	8d/	.	8f/	.	.	.	.	.	.	.	.	.	.	.	.	.	.	.
.	.	.	.	8r	.	.	8B-/J	.	8d/	.	8f/J	.	.	.	.	.	.	.	.	.	.	.	.	.	.	.
.	.	.	.	4r	.	.	8f\L	.	8d/	.	8dd\L	.	.	.	.	.	.	.	.	.	.	.	.	.	.	.
.	.	.	.	.	.	.	8f\	.	8d/	.	8dd\	.	.	.	.	.	.	.	.	.	.	.	.	.	.	.
.	.	.	.	8r	.	.	8f\J	.	8d/	.	8dd\J	.	.	.	.	.	.	.	.	.	.	.	.	.	.	.
4BB-/yy	.	4BB-/	.	4r	.	.	8f\L	.	8d/	.	8b-\L	.	.	.	.	.	2.dd/	[2.b-\	.	4.b-/	.	4.b-/	.	4.bb-\	.	.
.	.	.	.	.	.	.	8d\	.	8d/	.	8b-\	.	.	.	.	.	.	.	.	.	.	.	.	.	.	.
8ryy	.	8r	.	8r	.	.	8B-\J	.	8d/	.	8b-\J	.	.	.	.	.	.	.	.	.	.	.	.	.	.	.
4BB-/yy	.	4BB-/	.	(4.B-\	nos-	.	8B-\L	.	8d/	.	8f#X/L	.	.	.	.	.	.	.	.	(4.f#X/)	.	4.f#X/	.	4.ff#X\	.	.
.	.	.	.	.	.	.	8B-\	.	8d/	.	8f#/	.	.	.	.	.	.	.	.	.	.	.	.	.	.	.
!LO:N:vis=8.	!	!LO:N:vis=8.	!	!	!	!	!	!	!	!	!	!	!	!	!	!	!	!	!	!	!	!	!	!	!	!
8ryy	.	8r	.	.	.	.	8B-\J	.	8d/J	.	8f#/J	.	.	.	.	.	.	.	.	.	.	.	.	.	.	.
*	*	*	*	*	*	*	*	*	*	*	*	*	*	*	*	*	*	*	*	*	*	*	*	*v	*v	*
=7	=7	=7	=7	=7	=7	=7	=7	=7	=7	=7	=7	=7	=7	=7	=7	=7	=7	=7	=7	=7	=7	=7	=7	=7	=7
[y2.BB-/yy	.	[2.BB-/	.	[4.A\	.	.	8B-/L	.	8e-/L	.	8f#X/L	.	1.r	.	1.r	.	2.ee-/	2.b-\]	.	[4.a^/	.	[4.a^/	.	[4.aa^\	.
.	.	.	.	.	.	.	8B-/	.	8e-/	.	8f#/	.	.	.	.	.	.	.	.	.	.	.	.	.	.
.	.	.	.	.	.	.	8B-/	.	8e-/	.	8f#/J	.	.	.	.	.	.	.	.	.	.	.	.	.	.
*	*	*	*	*	*	*	*	*	*	*	*Xtremolo	*	*	*	*	*	*	*	*	*	*	*	*	*	*
.	.	.	.	4A\]	.	.	8B-/	.	8e-/	.	(8f#/L	.	.	.	.	.	.	.	.	4a/]	.	4a/]	.	4aa\]	.
.	.	.	.	.	.	.	8B-/	.	8e-/	.	8a/)	.	.	.	.	.	.	.	.	.	.	.	.	.	.
.	.	.	.	8G\)	-tras	.	8B-/J	.	8e-/J	.	8g/J	.	.	.	.	.	.	.	.	8g/	.	8g/	.	8gg\	.
*	*	*	*	*	*	*	*Xtremolo	*	*Xtremolo	*	*	*	*	*	*	*	*	*	*	*	*	*	*	*	*
8BB-/]yy	.	8BB-/]	.	4F\	de-	.	8B-/L	.	8d/L	.	8fn/L	.	.	.	.	.	2.dd/	2.b-\	.	4f/)	.	4f/)	.	4ff\)	.
8ryy	.	8r	.	.	.	.	8d/	.	8f/	.	(8f/	.	.	.	.	.	.	.	.	.	.	.	.	.	.
8r	.	8r	.	8G\	-pre-	.	8d/J	.	8f/J	.	8g/J	.	.	.	.	.	.	.	.	8r	.	8r	.	8r	.
4r	.	4r	.	4A\	-ca-	.	(8d/L	.	(8f/L	.	8a/L)	.	.	.	.	.	.	.	.	4r	.	4r	.	4r	.
.	.	.	.	.	.	.	8c/)	.	8e-/)	.	(8a/	<	.	.	.	.	.	.	.	.	.	.	.	.	.
8r	.	8r	.	8B-\	-ti-	.	8B-/J	.	8d/J	.	8b-/J)	.	.	.	.	.	.	.	.	8r	.	8r	.	8r	.
*	*	*	*	*	*	*	*	*	*	*	*	*	*	*	*	*	*v	*v	*	*	*	*	*	*	*
=8	=8	=8	=8	=8	=8	=8	=8	=8	=8	=8	=8	=8	=8	=8	=8	=8	=8	=8	=8	=8	=8	=8	=8	=8
*	*	*	*	*	*	*	*	*	*	*	*tremolo	*	*	*	*	*	*	*	*	*	*	*	*	*
*	*	*	*	*	*	*	*	*	*	*	*2\right	*	*	*	*	*	*	*	*	*	*	*	*	*
2.r	.	(4.A\	.	[4.c\	-o-	.	4.A/	<	8c/L	.	8cc\L	.	1.ryy	.	1.ryy	.	1.ryy	.	2.ryy	.	2.ryy	.	2.r	.
.	.	.	.	.	.	.	.	.	8f 8c/	<	8cc\	.	.	.	.	.	.	.	.	.	.	.	.	.
.	.	.	.	.	.	.	.	.	8fJ 8c/	.	8cc\	.	.	.	.	.	.	.	.	.	.	.	.	.
.	.	4.A-X\	<	4c\]	.	.	4.A-X/	.	4.ryy	.	8cc\	.	.	.	.	.	.	.	.	.	.	.	.	.
.	.	.	.	.	.	.	.	.	.	.	8cc\	.	.	.	.	.	.	.	.	.	.	.	.	.
.	.	.	.	8c\	-nes	.	.	.	.	.	8cc\J	.	.	.	.	.	.	.	.	.	.	.	.	.
*	*	*	*	*	*	*	*	*	*tremolo	*	*	*	*	*	*	*	*	*	*	*	*	*	*	*
4G\	<	4G\)	.	[4.d\	ne	.	4.G/	.	8Bn/L	.	8ddL 8f\	.	.	.	.	.	.	.	4ryy	.	4ryy	.	4r	.
.	.	.	.	.	.	.	.	.	8B/	.	8dd 8f\	.	.	.	.	.	.	.	.	.	.	.	.	.
8F\	.	8F\	.	.	.	.	.	[	8B/J	.	8ddJ 8f\	.	.	.	.	.	.	.	8ryy	.	8ryy	.	8r	.
4E-\	.	4E-\	.	4d\]	.	.	4.g\	.	8gL 8G/	[	8ddL 8g/	.	.	.	.	.	.	.	4ryy	.	4ryy	.	4r	.
.	.	.	.	.	.	.	.	.	8g 8G/	.	8dd 8g/	.	.	.	.	.	.	.	.	.	.	.	.	.
8D\	[	8D\	[	8d\	des-	.	.	fp	8gJ 8G/	fp	8ddJ 8g/	[[	.	.	.	.	.	.	8dd\	.	8dd\	.	8ddd\	.
*	*	*	*	*	*	*	*	*	*	*	*Xtremolo	*	*	*	*	*	*	*	*	*	*	*	*	*
=9	=9	=9	=9	=9	=9	=9	=9	=9	=9	=9	=9	=9	=9	=9	=9	=9	=9	=9	=9	=9	=9	=9	=9	=9
*	*	*	*	*	*	*	*tremolo	*	*	*	*	*	*	*	*	*	*	*	*	*	*	*	*	*
[2.C/	fp	[2.C/	fp	[4.e-\	-pi-	.	8e-L 8c\	.	8gL 8G/	.	8ee-L 8g/	fp	1.ryy	.	1.ryy	.	1.ryy	.	([4.ee-\	.	[4.ee-\	sf	([4.eee-\	sf
.	.	.	.	.	.	.	8e- 8c\	.	8g 8G/	.	8g/	.	.	.	.	.	.	.	.	.	.	.	.	.
.	.	.	.	.	.	.	8e-J 8c\	.	8gJ 8G/	.	8g/J	.	.	.	.	.	.	.	.	.	.	>	.	>
*	*	*	*	*	*	*	*	*	*	*	*tremolo	*	*	*	*	*	*	*	*	*	*	*	*	*
.	.	.	.	4e-\]	.	.	8c\L	.	8e-/L	.	8g/L	.	.	.	.	.	.	.	4ee-\]	.	4ee-\]	.	4eee-\]	.
.	.	.	.	.	.	.	8c\	.	8e-/	.	8g/	.	.	.	.	.	.	.	.	.	.	.	.	.
.	.	.	.	8d\	-ci-	.	8c\J	.	8e-/J	.	8g/J	.	.	.	.	.	.	.	8dd\	.	8dd\	]	8ddd\	]
*	*	*	*	*	*	*	*2\right	*	*	*	*Xtremolo	*	*	*	*	*	*	*	*	*	*	*	*	*
8C/]	.	8C/]	.	4c\	-as,	.	8c\L	.	8e-/L	.	8g/L	.	.	.	.	.	.	.	4cc/)	.	4cc\	.	4ccc\)	.
8r	.	8r	.	.	.	.	8c\	.	8e-/	.	8g/	.	.	.	.	.	.	.	.	.	.	.	.	.
8r	.	8r	.	8r	.	.	8c\	.	8e-/	.	(8b-/J	.	.	.	.	.	.	.	(8b-/	.	8r	.	(8bb-'\	.
4r	.	4r	.	[4.c\	sed	.	8c\	.	8e-/	.	8a/L)	.	.	.	.	.	.	.	4a/)	.	4r	.	(4aa\)	.
.	.	.	.	.	.	.	8c\	.	8e-/	.	8a/	.	.	.	.	.	.	.	.	.	.	.	.	.
8r	.	8r	.	.	.	.	8c\J	.	8e-/J	.	8g/J	.	.	.	.	.	.	.	(8g/	.	8r	.	8gg'\	.
=10	=10	=10	=10	=10	=10	=10	=10	=10	=10	=10	=10	=10	=10	=10	=10	=10	=10	=10	=10	=10	=10	=10	=10	=10
*	*	*	*	*	*	*	*	*	*	*	*	*	*	*	*	*	*^	*	*	*	*	*	*	*
*	*	*	*	*	*	*	*	*	*	*	*tremolo	*	*	*	*	*	*	*	*	*	*	*	*	*	*
4r	.	[2.D\	.	2.c\]	.	.	8d\L	.	8d/L	.	8f#X/L	.	1.ryy	.	1.ryy	.	[1.dd	1.r	.	4f#X/	>	2.r	.	(4ff#X\)	>
.	.	.	.	.	.	.	8d\	.	8d/	.	8f#/	.	.	.	.	.	.	.	.	.	.	.	.	.	.
8r	.	.	.	.	.	.	8d\	.	8d/	.	8f#/J	.	.	.	.	.	.	.	.	8a/	.	.	.	8aa\	.
!	!	!	!	!	!	!	!	!	!	!	!	!	!	!	!	!	!	!	!	!LO:N:vis=8	!	!	!	!	!
2.D\	fp	.	.	.	.	.	8d\	.	8d/	.	8f#/L	.	.	.	.	.	.	.	.	4dd/)	]	.	.	4ddd\)	]
.	.	.	.	.	.	.	8d\	.	8d/	.	8f#/	.	.	.	.	.	.	.	.	.	.	.	.	.	.
.	.	.	.	.	.	.	8d\J	.	8d/J	.	8f#/J	.	.	.	.	.	.	.	.	8r	.	.	.	8ryy	.
.	.	.	.	16qqd/LL	.	.	.	.	.	.	.	.	.	.	.	.	.	.	.	.	.	.	.	.	.
.	.	.	.	16qqc/JJ	.	.	.	.	.	.	.	.	.	.	.	.	.	.	.	.	.	.	.	.	.
.	.	4.D\]	.	4.B-\	a	.	8d\L	.	8en/L	.	8g/L	.	.	.	.	.	.	.	.	4r	.	4r	.	4.ryy	.
.	.	.	.	.	.	.	8d\	.	8e/	.	8g/	.	.	.	.	.	.	.	.	.	.	.	.	.	.
.	.	.	.	.	.	.	8d\J	.	8e/J	.	8g/J	.	.	.	.	.	.	.	.	8r	.	8r	.	.	.
!	!	!LO:N:vis=4	!	!	!	!	!	!	!	!	!	!	!	!	!	!	!	!	!	!	!	!	!	!	!
4.C/	.	4.C/	.	4.A\	pe-	.	8c\L	.	8f#X/L	.	8a/L	.	.	.	.	.	.	.	.	4r	.	4r	.	4.ryy	.
.	.	.	.	.	.	.	8c\	.	8f#/	.	8a/	.	.	.	.	.	.	.	.	.	.	.	.	.	.
.	.	.	.	.	.	.	8c\J	.	8f#/J	.	8a/J	.	.	.	.	.	.	.	.	8r	.	8f#X/	p	.	.
*	*	*	*	*	*	*	*	*	*Xtremolo	*	*	*	*	*	*	*	*	*	*	*	*	*	*	*	*
=11	=11	=11	=11	=11	=11	=11	=11	=11	=11	=11	=11	=11	=11	=11	=11	=11	=11	=11	=11	=11	=11	=11	=11	=11	=11
(2.BB-/	pp	(2.BB-/	pp	[4.d\	-ri-	.	8B-/L	.	(2.f#X/	sf	8aL 8d/	.	1.ryy	.	1.ryy	.	1.dd]	1.r	.	1.ryy	.	2.f#X/	.	1.ryy	.
.	.	.	.	.	.	.	8B-/	.	.	.	8a 8d/	.	.	.	.	.	.	.	.	.	.	.	.	.	.
.	.	.	.	.	.	.	8B-/	.	.	.	8a 8d/	.	.	.	.	.	.	.	.	.	.	.	.	.	.
.	.	.	.	4d\]	.	.	8B-/	.	.	.	8a 8d/	.	.	.	.	.	.	.	.	.	.	.	.	.	.
.	.	.	.	.	.	.	8B-/	.	.	.	8a 8d/	.	.	.	.	.	.	.	.	.	.	.	.	.	.
.	.	.	.	8G\	-ca-	.	8B-/J	.	.	.	8aJ 8d/	.	.	.	.	.	.	.	.	.	.	.	.	.	.
!	!	!LO:N:vis=2	!	!	!	!	!	!	!	!	!	!	!	!	!	!	!	!	!	!	!	!	!	!	!
2.E-/	.	2.E-/	.	(4.G\	-lis	.	8B-/L	.	8g/L)	.	8g/L	.	.	.	.	.	.	.	.	.	.	2.g/	.	.	.
.	.	.	.	.	.	.	8B-/	.	8e-/	.	8g/	.	.	.	.	.	.	.	.	.	.	.	.	.	.
.	.	.	.	.	.	.	8B-/	.	8e-/J	.	8g/	.	.	.	.	.	.	.	.	.	.	.	.	.	.
*	*	*	*	*	*	*	*	*	*tremolo	*	*	*	*	*	*	*	*	*	*	*	*	*	*	*	*
.	.	.	.	8A\L	.	.	8B-/	.	8e-/L	.	8g/	.	.	.	.	.	.	.	.	.	.	.	.	.	.
.	.	.	.	8B-\J)	.	.	8B-/	.	8e-/	.	8g/	.	.	.	.	.	.	.	.	.	.	.	.	.	.
.	.	.	.	8ryy	.	.	8B-/J	.	8e-/J	.	8g/J	.	.	.	.	.	.	.	.	.	.	.	.	.	.
*	*	*	*	*	*	*	*	*	*	*	*	*	*	*	*	*	*v	*v	*	*	*	*	*	*	*
!!LO:PB:g=original
=12	=12	=12	=12	=12	=12	=12	=12	=12	=12	=12	=12	=12	=12	=12	=12	=12	=12	=12	=12	=12	=12	=12	=12	=12
2.AAn/	.	2.AAn/	.	[4.c\	cunc-	.	8c/L	.	8e-/L	.	8g/L	.	1.ryy	.	1.ryy	.	2.ee-/	.	1.r	.	2.g/	.	1.r	.
.	.	.	.	.	.	.	8c/	.	8e-/	.	8g/	.	.	.	.	.	.	.	.	.	.	.	.	.
.	.	.	.	.	.	.	8c/	.	8e-/	.	8g/	.	.	.	.	.	.	.	.	.	.	.	.	.
.	.	.	.	4c\]	.	.	8c/	.	8e-/	.	8g/	.	.	.	.	.	.	.	.	.	.	.	.	.
.	.	.	.	.	.	.	8c/	.	8e-/	.	8g/	.	.	.	.	.	.	.	.	.	.	.	.	.
.	.	.	.	8c\	-tis	.	8c/J	.	8e-/J	.	8g/J	.	.	.	.	.	.	.	.	.	.	.	.	.
2.D/	.	2.D/	.	(4d\	li-	.	8A/L	.	8d/L	.	8f#X/L	.	.	.	.	.	2.dd/	.	.	.	2.f#X/	.	.	.
.	.	.	.	.	.	.	8A/	.	8d/	.	8f#/	.	.	.	.	.	.	.	.	.	.	.	.	.
.	.	.	.	8c\)	.	.	8A/J	.	8d/J	.	8f#/J	.	.	.	.	.	.	.	.	.	.	.	.	.
*	*	*	*	*	*	*	*Xtremolo	*	*Xtremolo	*	*Xtremolo	*	*	*	*	*	*	*	*	*	*	*	*	*
.	.	.	.	4B-\	-be-	.	8B-/L	.	8en/L	.	8g/L	.	.	.	.	.	.	.	.	.	.	.	.	.
.	.	.	.	.	.	.	8B-/	.	8e/	.	8g/	.	.	.	.	.	.	.	.	.	.	.	.	.
.	.	.	.	8A\	-ra	.	8c/J	.	8f#X/J	.	8a/J	.	.	.	.	.	.	.	.	.	.	.	.	.
=13	=13	=13	=13	=13	=13	=13	=13	=13	=13	=13	=13	=13	=13	=13	=13	=13	=13	=13	=13	=13	=13	=13	=13	=13
*	*	*	*	*	*	*	*	*	*	*	*	*	*	*	*	*	*	*	*^	*	*	*	*	*
*	*	*	*	*	*	*	*tremolo	*	*	*	*	*	*	*	*	*	*	*	*	*	*	*	*	*	*
4GG/)	.	4GG/)	.	4B-\	nos	.	8B-/L	.	8g/L	.	8b-/L	.	1.ryy	.	1.ryy	.	4b-/	.	4r	1.r	.	4g/	.	4r	.
.	.	.	.	.	.	.	8B-/	.	8d/	.	8g 8G/	.	.	.	.	.	.	.	.	.	.	.	.	.	.
8r	.	8r	.	8r	.	.	8B-/	.	8d/J	.	8gJ 8G/	.	.	.	.	.	8r	.	8r	.	.	8r	.	8r	.
*	*	*	*	*	*	*	*	*	*tremolo	*	*tremolo	*	*	*	*	*	*	*	*	*	*	*	*	*	*
4r	.	4r	.	2.B-^\	sem-	.	8B-/	.	8d/L	.	8gL 8G/	.	.	.	.	.	4ryy	.	4r	.	.	4r	.	4r	.
.	.	.	.	.	.	>	8B-/	.	8d/	.	8g 8G/	.	.	.	.	.	.	.	.	.	.	.	.	.	.
8r	.	8r	.	.	.	.	8B-/	.	8d/J	.	8gJ 8G/	.	.	.	.	.	8ryy	.	8dd/	.	.	8r	.	8ddd\	.
2.r	.	2.r	.	.	.	.	8B-/	.	8d/L	.	8gL 8G/	.	.	.	.	.	4r	.	(<4ee-/	.	.	4.ryy	.	4eee-\	.
.	.	.	.	.	.	.	8B-/	.	8d/	.	8g 8G/	.	.	.	.	.	.	.	.	.	.	.	.	.	.
.	.	.	.	.	.	.	8B-/	.	8d/	.	8g 8G/	.	.	.	.	.	8r	.	8dd/	.	.	.	.	8ddd\	.
.	.	.	.	4B-\	-per,	]	8B-/	.	8d/	.	8g 8G/	.	.	.	.	.	4r	.	4cc/	.	.	4.ryy	.	4ccc\	.
.	.	.	.	.	.	.	8B-/	.	8d/	.	8g 8G/	.	.	.	.	.	.	.	.	.	.	.	.	.	.
.	.	.	p	8r	.	.	8B-/J	.	8d/J	.	8gJ 8G/	.	.	.	.	.	8r	pp	8b-/)	.	.	.	.	8bb-\	.
*	*	*	*	*	*	*	*Xtremolo	*	*	*	*	*	*	*	*	*	*	*	*	*	*	*	*	*	*
*	*	*	*	*	*	*	*	*	*	*	*	*	*	*	*	*	*	*	*v	*v	*	*	*	*	*
=14	=14	=14	=14	=14	=14	=14	=14	=14	=14	=14	=14	=14	=14	=14	=14	=14	=14	=14	=14	=14	=14	=14	=14	=14
!	!	!	!	!LO:TX:a:t=dolce.	!	!	!	!	!	!	!	!	!	!	!	!	!	!	!	!	!	!	!	!
1.r	.	([1.A-X	.	2.B-\	Vir-	.	[1.A-X	.	8d/L	.	8fL 8B-/	.	1.ryy	.	1.ryy	.	1.ff 1.b-	.	[1.b- 1.d	.	1.ryy	.	4bb-\	.
.	.	.	.	.	.	.	.	.	8d/	.	8f 8B-/	.	.	.	.	.	.	.	.	.	.	.	.	.
.	.	.	.	.	.	.	.	.	8d/	.	8f 8B-/	.	.	.	.	.	.	.	.	.	.	.	8r	.
.	.	.	.	.	.	.	.	.	8d/	.	8f 8B-/	.	.	.	.	.	.	.	.	.	.	.	4r	.
.	.	.	.	.	.	.	.	.	8d/	.	8f 8B-/	.	.	.	.	.	.	.	.	.	.	.	.	.
.	.	.	.	.	.	.	.	.	8d/	.	8f 8B-/	.	.	.	.	.	.	.	.	.	.	.	8r	.
.	.	.	.	4.c\	-go	.	.	.	8d/	.	8f 8B-/	.	.	.	.	.	.	.	.	.	.	.	4.ryy	.
.	.	.	.	.	.	.	.	.	8d/	.	8f 8B-/	.	.	.	.	.	.	.	.	.	.	.	.	.
.	.	.	.	.	.	.	.	.	8d/	.	8f 8B-/	.	.	.	.	.	.	.	.	.	.	.	.	.
.	.	.	.	4.d\	glor-	.	.	.	8d/	.	8f 8B-/	.	.	.	.	.	.	.	.	.	.	.	4.ryy	.
.	.	.	.	.	.	.	.	.	8d/	.	8f 8B-/	.	.	.	.	.	.	.	.	.	.	.	.	.
.	.	.	.	.	.	.	.	.	8d/J	.	8fJ 8B-/	.	.	.	.	.	.	.	.	.	.	.	.	.
=15	=15	=15	=15	=15	=15	=15	=15	=15	=15	=15	=15	=15	=15	=15	=15	=15	=15	=15	=15	=15	=15	=15	=15	=15
*	*	*	*	*2\left	*	*	*	*	*	*	*	*	*	*	*	*	*	*	*	*	*	*	*	*
1.r	.	4.A-\]	.	[2.e-\	-io-	.	4.A-X/]	.	8b-\L	.	8e-L 8B-/	.	1.ryy	.	1.ryy	.	[1.ee- 1.b-	.	1.b-] 1.e-	.	1.ryy	.	1.ryy	.
.	.	.	.	.	.	.	.	.	8b-\	.	8e- 8B-/	.	.	.	.	.	.	.	.	.	.	.	.	.
.	.	.	.	.	.	.	.	.	8b-\	.	8e- 8B-/	.	.	.	.	.	.	.	.	.	.	.	.	.
.	.	4.G\	.	.	.	.	4.G/	.	8b-\	.	8e- 8B-/	.	.	.	.	.	.	.	.	.	.	.	.	.
.	.	.	.	.	.	.	.	.	8b-\	.	8e- 8B-/	.	.	.	.	.	.	.	.	.	.	.	.	.
.	.	.	.	.	.	.	.	.	8b-\	.	8e- 8B-/	.	.	.	.	.	.	.	.	.	.	.	.	.
.	.	4.E-\	.	4.e-\]	.	.	4.E-/	.	8b-\	.	8e- 8B-/	.	.	.	.	.	.	.	.	.	.	.	.	.
.	.	.	.	.	.	.	.	.	8b-\	.	8e- 8B-/	.	.	.	.	.	.	.	.	.	.	.	.	.
.	.	.	.	.	.	.	.	.	8b-\	.	8e- 8B-/	.	.	.	.	.	.	.	.	.	.	.	.	.
.	.	4.F\)	.	4.e-\	-sa,	.	4.F/	.	8b-\	.	8e- 8B-/	.	.	.	.	.	.	.	.	.	.	.	.	.
.	.	.	.	.	.	.	.	.	8b-\	.	8e- 8B-/	.	.	.	.	.	.	.	.	.	.	.	.	.
.	.	.	.	.	.	.	.	.	8b-\J	.	8e-J 8B-/	.	.	.	.	.	.	.	.	.	.	.	.	.
=16	=16	=16	=16	=16	=16	=16	=16	=16	=16	=16	=16	=16	=16	=16	=16	=16	=16	=16	=16	=16	=16	=16	=16	=16
1.r	.	(1.G-X	.	[4.e-\	Vir-	.	1.G-X	.	8a-X/L	.	8e-L 8c/	.	1.ryy	.	1.ryy	.	1.ee-] 1.a-X	.	[1.a-X 1.c	.	1.ryy	.	1.ryy	.
.	.	.	.	.	.	.	.	.	8a-/	.	8e- 8c/	.	.	.	.	.	.	.	.	.	.	.	.	.
.	.	.	.	.	.	.	.	.	8a-/	.	8e- 8c/	.	.	.	.	.	.	.	.	.	.	.	.	.
.	.	.	.	4e-\]	.	.	.	.	8a-/	.	8e- 8c/	.	.	.	.	.	.	.	.	.	.	.	.	.
.	.	.	.	.	.	.	.	.	8a-/	.	8e- 8c/	.	.	.	.	.	.	.	.	.	.	.	.	.
.	.	.	.	8A-X\	-go	.	.	.	8a-/	.	8e- 8c/	.	.	.	.	.	.	.	.	.	.	.	.	.
.	.	.	.	4.B-\	be-	.	.	.	8a-/	.	8e- 8c/	.	.	.	.	.	.	.	.	.	.	.	.	.
.	.	.	.	.	.	.	.	.	8a-/	.	8e- 8c/	.	.	.	.	.	.	.	.	.	.	.	.	.
.	.	.	.	.	.	.	.	.	8a-/	.	8e- 8c/	.	.	.	.	.	.	.	.	.	.	.	.	.
.	.	.	.	4.c\	-ne-	.	.	.	8a-/	.	8e- 8c/	.	.	.	.	.	.	.	.	.	.	.	.	.
.	.	.	.	.	.	.	.	.	8a-/	.	8e- 8c/	.	.	.	.	.	.	.	.	.	.	.	.	.
.	.	.	.	.	.	.	.	.	8a-/J	.	8e-J 8c/	.	.	.	.	.	.	.	.	.	.	.	.	.
*	*	*	*	*	*	*	*	*	*Xtremolo	*	*Xtremolo	*	*	*	*	*	*	*	*	*	*	*	*	*
=17	=17	=17	=17	=17	=17	=17	=17	=17	=17	=17	=17	=17	=17	=17	=17	=17	=17	=17	=17	=17	=17	=17	=17	=17
*	*	*	*	*	*	*	*	*	*	*	*	*	*	*	*	*	*^	*	*	*	*	*	*^	*
*	*	*	*	*2\right	*	*	*	*	*	*	*	*	*	*	*	*	*	*	*	*	*	*	*	*	*	*
4r	.	2.F\)	<	[2.c#X\	-dic-	.	2.F/	.	8a-X/L	.	8d-X/L	.	1.r	.	1.r	.	4dd-X/	4a-X\	.	4a-] 4d-X/	.	4r	.	4r	1.r	.
.	.	.	.	.	.	.	.	.	8d-X/	<	8a-X/	<	.	.	.	.	.	.	.	.	.	.	.	.	.	.
8r	.	.	.	.	.	.	.	<	8d-/J	.	8a-/J	.	.	.	.	.	8r	8ryy	.	8r	.	8r	.	8r	.	.
*	*	*	*	*	*	*	*	*	*tremolo	*	*tremolo	*	*	*	*	*	*	*	*	*	*	*2\right	*	*	*	*
4.F\	<	.	.	.	.	.	.	.	8d-/L	.	8a-/L	.	.	.	.	.	4r	4ryy	.	4r	.	2.cc#X\	.	2.ccc#X\	.	<
!	!	!	!	!	!	!	!	!	!	!	!	!	!	!	!	!	!	!	!	!	!	!	!LO:HP:a	!	!	!
.	.	.	.	.	.	.	.	.	8d-/	.	8a-/	.	.	.	.	.	.	.	.	.	.	.	<	.	.	.
.	.	.	.	.	.	.	.	.	8d-/J	.	8a-/J	.	.	.	.	.	8r	8ryy	.	8r	.	.	.	.	.	.
4.F#X\	.	4.F#X\	.	4.c#\]	.	.	4.F#X/	.	8c#X/L	.	8an/L	.	.	.	.	.	2.r	2.ryy	.	2.r	.	.	.	.	.	.
.	.	.	.	.	.	.	.	.	8c#/	.	8a/	.	.	.	.	.	.	.	.	.	.	.	.	.	.	.
.	.	.	.	.	.	.	.	.	8c#/	[	8a/J	.	.	.	.	.	.	.	.	.	.	.	.	.	.	.
4.En\	[[	4.En\	[[	4.c#\	-ta,	.	4.A/	.	8c#/	.	8gn/L	[	.	.	.	.	.	.	.	.	.	4.cc#\	[[	4.ccc#\	.	.
.	.	.	.	.	.	.	.	[	8c#/	.	8g/	.	.	.	.	.	.	.	.	.	.	.	.	.	.	.
.	.	.	.	.	.	.	.	.	8c#/J	.	8g/J	.	.	.	.	.	.	.	.	.	.	.	.	.	.	[
!!LO:PB:g=original
=18	=18	=18	=18	=18	=18	=18	=18	=18	=18	=18	=18	=18	=18	=18	=18	=18	=18	=18	=18	=18	=18	=18	=18	=18	=18	=18
*	*	*	*	*	*	*	*tremolo	*	*2/left	*	*	*	*	*	*	*	*	*	*	*	*	*	*	*	*	*
!	!LO:DY:rj	!	!LO:DY:rj	!	!	!	!	!	!	!LO:DY:rj	!	!	!	!	!	!	!	!	!LO:DY:rj	!	!	!	!LO:DY:rj	!	!	!LO:DY:rj:t=mf.
1.D	fp	(1.D	fp	2.d\	Do-	.	8A/L	.	8c/L	mf	8f#X/L	mf	1.ryy	.	1.ryy	.	1.dd	1.dd	mf	(2.a 2.f#X/	.	(2.dd\	mf	(2.ddd (<2.ff#X\	2.ryy	mf
.	.	.	.	.	.	.	8A/	.	8c/	.	8f#/	.	.	.	.	.	.	.	.	.	.	.	.	.	.	.
.	.	.	.	.	.	.	8A/	.	8c/	.	8f#/	.	.	.	.	.	.	.	.	.	.	.	.	.	.	.
.	.	.	.	.	.	.	8A/	.	8c/	.	8f#/	.	.	.	.	.	.	.	.	.	.	.	.	.	.	>
.	.	.	.	.	.	.	8A/	.	8c/	.	8f#/	.	.	.	.	.	.	.	>	.	.	.	.	.	.	.
.	.	.	.	.	.	.	8A/J	.	8c/J	.	8f#/J	.	.	.	.	.	.	.	.	.	.	.	.	.	.	.
*	*	*	*	*	*	*	*	*	*Xtremolo	*	*	*	*	*	*	*	*	*	*	*	*	*	*	*	*	*
.	.	.	.	4.B-\	-mi-	.	8B-/L	.	8B-/L	>	8g/L	>	.	.	.	.	.	.	.	4.b- 4.g/	.	4.b-/	.	4.bb- 4.gg\)	4.ryy	.
.	.	.	.	.	.	.	8B-/	.	8d/	.	8g/	.	.	.	.	.	.	.	.	.	>	.	.	.	.	.
.	.	.	.	.	.	.	8B-/J	.	8d/J	.	8g/J	.	.	.	.	.	.	.	.	.	.	.	.	.	.	.
*	*	*	*	*	*	*	*	*	*tremolo	*	*	*	*	*	*	*	*	*	*	*	*	*	*	*	*	*
!	!	!	!	!	!	!	!	!	!	!	!LO:TX:a:t=P:problem=złe wyświetlanie wartości rytmicznej tremolo	!	!	!	!	!	!	!	!	!	!	!	!	!	!	!
!	!	!	!	!	!	!	!	!	!	!	!LO:N:TREM:vis=4	!	!	!	!	!	!	!	!	!	!	!	!	!LO:N:vis=4	!	!
.	.	.	.	4.F#X\	-na	.	8c/L	.	8d/L	.	8a/L	.	.	.	.	.	.	.	.	[4.cc [4.a/	.	4.f#X/	>	4.ff#X/	4r	.
.	.	.	.	.	.	.	8c/	.	8d/	.	8a/	.	.	.	.	.	.	.	.	.	.	.	.	.	.	.
.	.	.	.	.	.	.	8c/J	.	8d/J	]]	8a/J	]]	.	.	.	.	.	.	]	.	.	.	.	.	8r	.
=19	=19	=19	=19	=19	=19	=19	=19	=19	=19	=19	=19	=19	=19	=19	=19	=19	=19	=19	=19	=19	=19	=19	=19	=19	=19	=19
*	*	*	*	*	*	*	*	*	*	*	*	*	*	*	*	*	*	*	*	*	*	*	*	*	*	*^
!	!	!LO:N:vis=4.	!	!	!	!	!	!	!	!	!	!	!	!	!	!	!	!	!	!	!	!	!	!	!	!	!
4.E-\	.	[2.E-\)	.	([4.A\	nost-	.	8c/L	.	8f#X/L	.	8a/L	p	1.ryy	.	1.ryy	.	1.ee-	1.cc	pp	4.cc] 4.a/]	.	4.f#X/	.	[4.aa/	[2.ee-\	.	.
.	.	.	.	.	.	.	8c/	.	8f#/	.	8a/	.	.	.	.	.	.	.	.	.	.	.	.	.	.	.	.
.	.	.	.	.	.	.	8c/J	.	8f#/J	.	8a/J	.	.	.	.	.	.	.	.	.	.	.	.	.	.	.	.
*	*	*	*	*	*	*	*	*	*	*	*Xtremolo	*	*	*	*	*	*	*	*	*	*	*	*	*	*	*	*
!	!	!	!	!	!	!	!	!	!	!	!	!	!	!	!	!	!	!	!	!	!LO:DY:rj	!LO:TX:a:t=P:problem=przekreślone 4b	!	!	!	!	!
4C/	.	.	.	4A\]	.	.	8B-/L	.	8g/L	.	8g/L	.	.	.	.	.	.	.	.	4.b- 4.g/	] p	4.g/	.	4aa/]	.	.	p
.	.	.	.	.	.	.	8B-/	.	8g/	.	8e-X/	.	.	.	.	.	.	.	.	.	.	.	.	.	.	.	.
8BB-/	.	.	.	8G\)	.	.	8B-/J	.	8g/J	.	8c/J	.	.	.	.	.	.	.	.	.	.	.	.	8gg/	.	]	.
*	*	*	*	*	*	*	*Xtremolo	*	*Xtremolo	*	*	*	*	*	*	*	*	*	*	*	*	*	*	*	*	*	*
!	!	!	!	!	!	!	!	!	!LO:SIC:v:s=8fn	!	!	!	!	!	!	!	!	!	!	!	!	!LO:TX:a:t=P:problem=przekreślone 4cc	!	!	!	!	!
4AA/	.	8E-\]	.	4F\	-ra	.	8A/	.	8f#/	.	8f/	.	.	.	.	.	.	.	.	4cc 4f/)	.	4a/)	] p	4ffn/)	4ee-\]	.	.
.	.	8c'\L	<	.	.	.	8c'/L	<	8e-L 8c/	<	8f'/L	<	.	.	.	.	.	.	.	.	.	.	.	.	.	.	.
8r	.	8B-'\J	.	8r	.	.	8B-'/J	.	8e-J 8c/	.	8g'/J	.	.	.	.	.	.	.	.	8r	.	8r	.	8r	8ryy	.	.
*	*	*	*	*	*	*	*	*	*tremolo	*	*	*	*	*	*	*	*	*	*	*	*	*	*	*	*	*	*
4r	.	8A'\L	.	4r	.	.	8A'/L	.	8e-L 8c/	.	8a'/L	.	.	.	.	.	.	.	.	4r	.	4r	.	4r	4ryy	.	.
.	.	8G'\	[	.	.	.	8G'/	[	8e- 8c/	.	8b-'/	.	.	.	.	.	.	.	.	.	.	.	.	.	.	.	.
8r	.	8F'\J	.	8r	.	.	8F'/J	.	8e-J 8c/	[[	8cc'/J	[[	.	.	.	.	.	.	.	8r	.	8r	.	8r	8ryy	.	.
*	*	*	*	*	*	*	*	*	*	*	*	*	*	*	*	*	*	*	*	*	*	*	*	*	*	*v	*v
*	*	*	*	*	*	*	*	*	*	*	*	*	*	*	*	*	*	*	*	*	*	*	*	*v	*v	*
=20	=20	=20	=20	=20	=20	=20	=20	=20	=20	=20	=20	=20	=20	=20	=20	=20	=20	=20	=20	=20	=20	=20	=20	=20	=20
*	*	*	*	*	*	*	*	*	*2/right	*	*tremolo	*	*	*	*	*	*	*	*	*	*	*	*	*	*
!	!	!	!	!	!	!	!	!	!	!LO:DY:rj	!	!	!	!	!	!	!	!	!	!	!	!	!	!	!
4BB-/	.	(4.F\	fp	[4.d\	Ad-	.	4.F/	fp	8dL 8B-/	fp	8b-L 8d/	fp	1.ryy	.	1.ryy	.	[2.dd/	4b-\	.	1.r	.	1.ryy	.	1.ryy	.
.	.	.	.	.	.	.	.	.	8d 8B-/	.	8b- 8d/	.	.	.	.	.	.	.	.	.	.	.	.	.	.
8r	.	.	.	.	.	.	.	.	8d 8B-/	.	8b- 8d/	.	.	.	.	.	.	8r	.	.	.	.	.	.	.
2.BB-/	.	4.F#X\	.	4d\]	.	.	4.F#X/	.	8d 8B-/	.	8b- 8d/	.	.	.	.	.	.	2.B-\	.	.	.	.	.	.	.
.	.	.	.	.	.	.	.	.	8d 8B-/	.	8b- 8d/	.	.	.	.	.	.	.	.	.	.	.	.	.	.
.	.	.	.	8d\	-vo-	.	.	.	8dJ 8B-/	.	8b-J 8d/	.	.	.	.	.	.	.	.	.	.	.	.	.	.
.	.	4.G\	.	(8e-\L	-ca-	.	4.G/	.	8dL 8B-/	.	8b-L 8d/	.	.	.	.	.	4dd/]	.	.	.	.	.	.	.	.
.	.	.	.	8d\	.	.	.	.	8d 8B-/	.	8b- 8d/	.	.	.	.	.	.	.	.	.	.	.	.	.	.
.	.	.	.	8A\J	.	.	.	.	8dJ 8B-/	.	8b-J 8d/	.	.	.	.	.	8r	.	.	.	.	.	.	.	.
*	*	*	*	*	*	*	*	*	*	*	*Xtremolo	*	*	*	*	*	*	*	*	*	*	*	*	*	*
4BB-/	.	8A\L	.	8c\L	.	.	(8A/L	.	8e-/L	.	8f/L	.	.	.	.	.	4r	4B-\	.	.	.	.	.	.	.
.	.	8B-\	.	8B-\J)	.	.	8B-/J)	.	8d/J	.	8f/	.	.	.	.	.	.	.	.	.	.	.	.	.	.
!	!	!	!	!	!	!	!	!	!	!	!LO:TX:a:t=P:problem=przekreślone 8f	!	!	!	!	!	!	!	!	!	!	!	!	!	!
8r	.	8d\J)	.	8G\	-ta	.	8B-/	.	8d/	.	8d/J	.	.	.	.	.	8r	8r	.	.	.	.	.	.	.
=21	=21	=21	=21	=21	=21	=21	=21	=21	=21	=21	=21	=21	=21	=21	=21	=21	=21	=21	=21	=21	=21	=21	=21	=21	=21
*	*	*	*	*	*	*	*tremolo	*	*	*	*tremolo	*	*	*	*	*	*	*	*	*	*	*	*	*	*
*2/left	*	*	*	*	*	*	*	*	*	*	*2/left	*	*	*	*	*	*	*	*	*	*	*	*	*	*
2.FF/	.	(2.FF/	.	[4.A\	nost-	.	8A/L	.	8c/L	.	8e-/L	.	1.ryy	.	1.ryy	.	1.r	[>2.f\	.	1.r	.	1.ryy	.	1.ryy	.
.	.	.	.	.	.	.	8A/	.	8c/	.	8e-/	.	.	.	.	.	.	.	.	.	.	.	.	.	.
.	.	.	.	.	.	.	8A/J	.	8c/J	.	8e-/	.	.	.	.	.	.	.	.	.	.	.	.	.	.
.	.	.	.	8.A\L]	.	.	8G/L	.	8B-/L	.	8e-/	.	.	.	.	.	.	.	.	.	.	.	.	.	.
.	.	.	.	.	.	.	8G/	.	8B-/	.	8e-/	.	.	.	.	.	.	.	.	.	.	.	.	.	.
.	.	.	.	16G\L	.	.	.	.	.	.	.	.	.	.	.	.	.	.	.	.	.	.	.	.	.
.	.	.	.	16A\	.	.	8G/J	.	8B-/J	.	8e-/J	.	.	.	.	.	.	.	.	.	.	.	.	.	.
.	.	.	.	16G\JJ	.	.	.	.	.	.	.	.	.	.	.	.	.	.	.	.	.	.	.	.	.
*	*	*	*	*	*	*	*	*	*	*	*Xtremolo	*	*	*	*	*	*	*	*	*	*	*	*	*	*
4F\	.	4F\)	.	4F\	-ra	.	8A/L	.	8c/L	.	8e-/L	.	.	.	.	.	.	8f\]	.	.	.	.	.	.	.
.	.	.	.	.	.	.	8A/	.	8c/	.	8d/	.	.	.	.	.	.	8r	.	.	.	.	.	.	.
8r	.	8r	.	8r	.	.	8A/	.	8c/	.	8e-/J	.	.	.	.	.	.	8r	.	.	.	.	.	.	.
4r	.	4r	.	4r	.	.	8A/	.	8c/	.	(8g-X^/L	.	.	.	.	.	.	4r	.	.	.	.	.	.	.
.	.	.	.	.	.	.	8A/	.	8c/	.	8f/)	.	.	.	.	.	.	.	.	.	.	.	.	.	.
!	!	!	!	!	!	!	!	!	!	!	!	!	!	!	!	!	!	!	!	!	!	!LO:TX:a:t=Solo.	!	!	!
8r	.	8r	.	8r	.	.	8A/J	.	8c/J	.	8e-/J	.	.	.	.	.	.	8r	.	.	.	.	.	.	.
*	*	*	*	*	*	*	*	*	*Xtremolo	*	*	*	*	*	*	*	*	*	*	*	*	*	*	*	*
*	*	*	*	*	*	*	*	*	*	*	*	*	*	*	*	*	*v	*v	*	*	*	*	*	*	*
=22	=22	=22	=22	=22	=22	=22	=22	=22	=22	=22	=22	=22	=22	=22	=22	=22	=22	=22	=22	=22	=22	=22	=22	=22
*	*	*tremolo	*	*	*	*	*	*	*	*	*	*	*	*	*	*	*	*	*	*	*	*	*	*
4BB-/	.	8BB-/L	.	(4.F\	Con-	.	8B-/L	.	1.B-	.	1.d-X	.	1.ryy	.	1.ryy	.	4r	.	1.r	.	[4.ff\	.	1.ryy	.
.	.	8BB-/	.	.	.	.	8B-/	.	.	.	.	.	.	.	.	.	.	.	.	.	.	.	.	.
8r	.	8BB-/J	.	.	.	.	8B-/	.	.	.	.	.	.	.	.	.	8r	.	.	.	.	.	.	.
4BB-/	.	8BB-/L	.	4G\)	.	.	8B-/	.	.	.	.	.	.	.	.	.	4ff 4f\	.	.	.	4ff\]	.	.	.
.	.	8BB-/	.	.	.	.	8B-/	.	.	.	.	.	.	.	.	.	.	.	.	.	.	.	.	.
8r	.	8BB-/J	.	8A\	-so-	.	8B-/J	.	.	.	.	.	.	.	.	.	8ff 8f\	.	.	.	8ee-\	.	.	.
4BB-/	.	8BB-/L	.	4.B-\	-la-	.	8B-/L	.	.	.	.	.	.	.	.	.	4ff 4f\	.	.	.	4ee-\	.	.	.
.	.	8BB-/	.	.	.	.	8B-/	.	.	.	.	.	.	.	.	.	.	.	.	.	.	.	.	.
8r	.	8BB-/J	.	.	.	.	8B-/	.	.	.	.	.	.	.	.	.	8r	.	.	.	8dd-X\	.	.	.
4BB-/	.	8BB-/L	.	4.d-X\	-trix	.	8B-/	.	.	.	.	.	.	.	.	.	4ff 4f\	.	.	.	4cc\	.	.	.
.	.	8BB-/	.	.	.	.	8B-/	.	.	.	.	.	.	.	.	.	.	.	.	.	.	.	.	.
8r	.	8BB-/J	.	.	.	.	8B-/J	.	.	.	.	.	.	.	.	.	8r	.	.	.	8b-\	.	.	.
!!LO:PB:g=original
=23	=23	=23	=23	=23	=23	=23	=23	=23	=23	=23	=23	=23	=23	=23	=23	=23	=23	=23	=23	=23	=23	=23	=23	=23
(4.BB-^/	.	8BB-/L	.	2.f\	no-	.	8B-/L	.	2.c/	.	4.c/	.	1.ryy	.	1.ryy	.	4r	.	1.ryy	.	1.cc	.	1.ryy	.
.	.	8BB-/	.	.	.	.	8B-/	.	.	.	.	.	.	.	.	.	.	.	.	.	.	.	.	.
.	.	8BB-/J	.	.	.	.	8B-/J	.	.	.	.	.	.	.	.	.	8ryy	.	.	.	.	.	.	.
*	*	*Xtremolo	*	*	*	*	*Xtremolo	*	*	*	*2/right	*	*	*	*	*	*	*	*	*	*	*	*	*
4AA-X/)	.	8AA-X/L	.	.	.	.	8A-X/L	.	.	.	2.f/	.	.	.	.	.	4ff 4f\	.	.	.	.	.	.	.
.	.	8AA-/	.	.	.	.	8A-/	.	.	.	.	.	.	.	.	.	.	.	.	.	.	.	.	.
8GG/	.	8GG/J	.	.	.	.	8G/J	.	.	.	.	.	.	.	.	.	8ff 8f\	.	.	.	.	.	.	.
*	*	*tremolo	*	*	*	*	*tremolo	*	*	*	*	*	*	*	*	*	*	*	*	*	*	*	*	*
!LO:TX:a:t=P:problem=przekreślony bemol	!	!LO:TX:a:t=P:problem=przekreślony bemol	!	!	!	!	!	!	!	!	!	!	!	!	!	!	!	!	!	!	!	!	!	!
4AA-/	.	8AA-/L	.	4c\	-stra	.	8A-/L	.	[2.f/	.	.	.	.	.	.	.	4ff 4f\	.	.	.	.	.	.	.
.	.	8AA-/	.	.	.	.	8A-/	.	.	.	.	.	.	.	.	.	.	.	.	.	.	.	.	.
8r	.	8AA-/J	.	8r	.	.	8A-/J	.	.	.	.	.	.	.	.	.	8r	.	.	.	.	.	.	.
4AA-/	.	8AA-/L	.	4r	.	.	8A-/L	.	.	.	4.cc\	.	.	.	.	.	4ff 4f\	.	.	.	.	.	.	.
.	.	8AA-/	.	.	.	.	8A-/	.	.	.	.	.	.	.	.	.	.	.	.	.	.	.	.	.
8r	.	8AA-/J	.	8r	.	.	8A-/J	.	.	.	.	.	.	.	.	.	8r	.	.	.	.	.	.	.
=24	=24	=24	=24	=24	=24	=24	=24	=24	=24	=24	=24	=24	=24	=24	=24	=24	=24	=24	=24	=24	=24	=24	=24	=24
*	*	*	*	*	*	*	*	*	*	*	*	*	*	*	*	*	*^	*	*	*	*	*	*^	*
4.GG/	.	8GG/L	.	[4.e-\	me-	.	8G/L	.	4.f/]	.	[4.ee-\	.	1.ryy	.	1.ryy	.	4.ff/	[2.B-\	.	1.ryy	.	4.b-\	.	4.bb-\	1.r	.
.	.	8GG/	.	.	.	.	8G/	.	.	.	.	.	.	.	.	.	.	.	.	.	.	.	.	.	.	.
.	.	8GG/	.	.	.	.	8G/	.	.	.	.	.	.	.	.	.	.	.	.	.	.	.	.	.	.	.
4.G\	.	8GG/	.	4e-\]	.	.	8G/	.	4.B-/	.	4ee-\]	.	.	.	.	.	2.b-/	.	.	.	.	4cc\	.	4ccc\	.	.
.	.	8GG/	.	.	.	.	8G/	.	.	.	.	.	.	.	.	.	.	.	.	.	.	.	.	.	.	.
.	.	8GG/J	.	8d-X\	-di-	.	8G/J	.	.	.	8dd-X\	.	.	.	.	.	.	.	.	.	.	8dd-X\	.	8ddd-X\	.	.
4.G-X\	.	8GG-X/L	.	4.c\	-a-	.	8G-X/L	.	4.e-/	.	4.cc\	.	.	.	.	.	.	4B-\]	.	.	.	4.ee-\	.	4.eee-\	.	.
.	.	8GG-/	.	.	.	.	8G-/	.	.	.	.	.	.	.	.	.	.	.	.	.	.	.	.	.	.	.
.	.	8GG-/J	.	.	.	.	8G-/J	.	.	.	.	.	.	.	.	.	.	8r	.	.	.	.	.	.	.	.
4E-\	.	8EE-/L	.	4.B-\	-trix	.	8E-/L	.	4.g-X/	.	4.b-\	.	.	.	.	.	4.ee-/	4r	.	.	.	4.gg-X\	.	4.ggg-X\	.	.
.	.	8EE-/	.	.	.	.	8E-/	.	.	.	.	.	.	.	.	.	.	.	.	.	.	.	.	.	.	.
8r	.	8EE-/J	.	.	.	.	8E-/J	.	.	.	.	.	.	.	.	.	.	8r	.	.	.	.	.	.	.	.
*	*	*Xtremolo	*	*	*	*	*Xtremolo	*	*	*	*	*	*	*	*	*	*	*	*	*	*	*	*	*	*	*
*	*	*	*	*	*	*	*	*	*	*	*	*	*	*	*	*	*	*	*	*	*	*	*	*v	*v	*
=25	=25	=25	=25	=25	=25	=25	=25	=25	=25	=25	=25	=25	=25	=25	=25	=25	=25	=25	=25	=25	=25	=25	=25	=25	=25
!	!	!	!	!	!	!	!	!	!	!	!	!	!	!	!	!	!	!	!LO:DY:rj	!	!LO:DY:rj	!	!	!	!
4r	.	([2.E-^\	.	(4A\	no-	.	[2.e-\	sf	8g-X/L	sf	8a/L	sf	1.ryy	.	1.ryy	.	[4.ee-/	[4.cc\	sf	[4.cc [4.a\	sf	[4.gg-X\	sf	[4.ggg-X\	sf
.	.	.	.	.	.	.	.	.	8g-/	.	8a/	.	.	.	.	.	.	.	.	.	.	.	.	.	.
8ryy	.	.	.	8B-\)	.	.	.	.	8g-/J	.	8a/J	.	.	.	.	.	.	.	.	.	.	.	.	.	.
([4.E-^\	.	.	.	4c\	-stra	.	.	.	8g-/L	.	8a/L	.	.	.	.	.	4ee-/]	4cc\]	.	4cc] 4a\]	.	4gg-\]	.	4ggg-\]	.
.	.	.	.	.	.	.	.	.	8e-/	.	8g-X/	.	.	.	.	.	.	.	.	.	.	.	.	.	.
.	.	.	.	8r	.	.	.	.	8c/J	.	8e-/J	.	.	.	.	.	8r	8ryy	.	8r	.	16ee-\LL	.	16eee-\LL	.
.	.	.	.	.	.	.	.	.	.	.	.	.	.	.	.	.	.	.	.	.	.	16cc\JJ	.	16ccc\JJ	.
*	*	*	*	*	*	*	*	*	*tremolo	*	*	*	*	*	*	*	*	*	*	*	*	*	*	*	*
4E-\]	.	4E-\]	.	4r	.	.	4e-\]	.	8f/L	.	8c/L	.	.	.	.	.	4r	4ryy	.	4r	.	4an/	.	4aan\	.
.	.	.	.	.	.	.	.	.	8f/	.	8f/	.	.	.	.	.	.	.	.	.	.	.	.	.	.
16F\LL	.	16F\LL	.	8r	.	.	16f\LL	.	8f/J	.	8f/J	.	.	.	.	.	8r	8ryy	.	8r	.	8ryy	.	8r	.
16E-\JJ	.	16E-\JJ	.	.	.	.	16e-\JJ	.	.	.	.	.	.	.	.	.	.	.	p	.	.	.	.	.	.
*	*	*	*	*	*	*	*	*	*	*	*tremolo	*	*	*	*	*	*	*	*	*	*	*	*	*	*
4D-X\	.	4D-X\	.	4F\	Tu-	.	4d-X\	.	8f/L	.	8f/L	.	.	.	.	.	[4.ff [4.f\	4.ryy	.	4r	.	4.ryy	.	4r	.
.	.	.	.	.	.	.	.	.	8f/	.	8f/	.	.	.	.	.	.	.	.	.	.	.	.	.	.
8C\)	.	8C\)	.	8F\	-o	.	8c\	.	8f/J	.	8f/J	.	.	.	.	.	.	.	.	8r	.	.	.	8r	.
*	*	*	*	*	*	*	*	*	*	*	*Xtremolo	*	*	*	*	*	*	*	*	*	*	*	*	*	*
*	*	*	*	*	*	*	*	*	*	*	*	*	*	*	*	*	*v	*v	*	*	*	*	*	*	*
=26	=26	=26	=26	=26	=26	=26	=26	=26	=26	=26	=26	=26	=26	=26	=26	=26	=26	=26	=26	=26	=26	=26	=26	=26
*	*	*tremolo	*	*	*	*	*	*	*	*	*	*	*	*	*	*	*	*	*	*	*	*	*	*
!	!	!	!	!	!	!	!	!	!	!	!	!	!	!	!	!	!	!	!	!LO:DY:a	!	!	!	!
4BB-/	.	8BB-/L	.	4.d-X\	Fi-	.	32d-X\LLL	.	8B-/L	.	32fLLL 32B-/	.	1.ryy	.	1.ryy	.	4ff] 4f\]	.	1.d-X 1.B-	p	1.ryy	.	1.ryy	.
.	.	.	.	.	.	.	32d-\	.	.	.	32f 32B-/	.	.	.	.	.	.	.	.	.	.	.	.	.
.	.	.	.	.	.	.	32d-\	.	.	.	32f 32B-/	.	.	.	.	.	.	.	.	.	.	.	.	.
.	.	.	.	.	.	.	32d-\JJ	.	.	.	32fJJ 32B-/	.	.	.	.	.	.	.	.	.	.	.	.	.
.	.	8BB-/	.	.	.	.	8d-\J	.	8B-/	.	8fJ 8B-/	.	.	.	.	.	.	.	.	.	.	.	.	.
8r	.	8BB-/	.	.	.	.	8r	.	8B-/	.	8r	.	.	.	.	.	8r	.	.	.	.	.	.	.
*	*	*	*	*	*	*	*rep	*	*	*	*rep	*	*	*	*	*	*	*	*	*	*	*	*	*
!	!	!	!	!LO:TX:a:t=P:problem=nuta dopisana ołówkiem	!	!	!	!	!	!	!	!	!	!	!	!	!	!	!	!	!	!	!	!
4BB-/	.	8BB-/	.	16d-\	-li-	.	32d-\LLL	.	8B-/	.	32fLLL 32B-/	.	.	.	.	.	4ff 4f'\	.	.	.	.	.	.	.
.	.	.	.	.	.	.	32d-\	.	.	.	32f 32B-/	.	.	.	.	.	.	.	.	.	.	.	.	.
.	.	.	.	16d-\	-o	.	32d-\	.	.	.	32f 32B-/	.	.	.	.	.	.	.	.	.	.	.	.	.
.	.	.	.	.	.	.	32d-\JJ	.	.	.	32fJJ 32B-/	.	.	.	.	.	.	.	.	.	.	.	.	.
!	!	!	!	!LO:TX:a:t=P:problem=nuta dopisana ołówkiem	!	!	!	!	!	!	!	!	!	!	!	!	!	!	!	!	!	!	!	!
.	.	8BB-/	.	4d-\	-nos	.	8d-\J	.	8B-/	.	8fJ 8B-/	.	.	.	.	.	.	.	.	.	.	.	.	.
8r	.	8BB-/J	.	.	.	.	8r	.	8B-/J	.	8r	.	.	.	.	.	8ff 8f'\	.	.	.	.	.	.	.
*	*	*	*	*	*	*	*Xrep	*	*	*	*Xrep	*	*	*	*	*	*	*	*	*	*	*	*	*
*	*	*	*	*	*	*	*rep	*	*	*	*rep	*	*	*	*	*	*	*	*	*	*	*	*	*
4BB-/	.	8BB-/L	.	4.d-\	re-	.	32d-\LLL	.	8B-/L	.	32fLLL 32B-/	.	.	.	.	.	4ff 4f'\	.	.	.	.	.	.	.
.	.	.	.	.	.	.	32d-\	.	.	.	32f 32B-/	.	.	.	.	.	.	.	.	.	.	.	.	.
.	.	.	.	.	.	.	32d-\	.	.	.	32f 32B-/	.	.	.	.	.	.	.	.	.	.	.	.	.
.	.	.	.	.	.	.	32d-\JJ	.	.	.	32fJJ 32B-/	.	.	.	.	.	.	.	.	.	.	.	.	.
.	.	8BB-/	.	.	.	.	8d-\J	.	8B-/	.	8fJ 8B-/	.	.	.	.	.	.	.	.	.	.	.	.	.
8r	.	8BB-/	.	.	.	.	8r	.	8B-/	.	8r	.	.	.	.	.	8r	.	.	.	.	.	.	.
*	*	*	*	*	*	*	*Xrep	*	*	*	*Xrep	*	*	*	*	*	*	*	*	*	*	*	*	*
*	*	*	*	*	*	*	*rep	*	*	*	*rep	*	*	*	*	*	*	*	*	*	*	*	*	*
4BB-/	.	8BB-/	.	4.d-\	-con-	.	32d-\LLL	.	8B-/	.	32fLLL 32B-/	.	.	.	.	.	[4.ff [4.f^\	.	.	.	.	.	.	.
.	.	.	.	.	.	.	32d-\	.	.	.	32f 32B-/	.	.	.	.	.	.	.	.	.	.	.	.	.
.	.	.	.	.	.	.	32d-\	.	.	.	32f 32B-/	.	.	.	.	.	.	.	.	.	.	.	.	.
.	.	.	.	.	.	.	32d-\JJ	.	.	.	32fJJ 32B-/	.	.	.	.	.	.	.	.	.	.	.	.	.
.	.	8BB-/	.	.	.	.	8d-\J	.	8B-/	.	8fJ 8B-/	.	.	.	.	.	.	.	.	.	.	.	.	.
8r	.	8BB-/J	.	.	.	.	8r	.	8B-/J	.	8r	.	.	.	.	.	.	.	.	.	.	.	.	.
*	*	*Xtremolo	*	*	*	*	*Xrep	*	*Xtremolo	*	*Xrep	*	*	*	*	*	*	*	*	*	*	*	*	*
=27	=27	=27	=27	=27	=27	=27	=27	=27	=27	=27	=27	=27	=27	=27	=27	=27	=27	=27	=27	=27	=27	=27	=27	=27
(8BB-^/L	.	(8BB-^>/L	.	([4.c\	-ci-	.	32F/LLL	.	(8B-^>/L	.	32fLLL 32c/	.	1.ryy	.	1.ryy	.	4ff] 4f\]	.	1.c 1.c	.	1.ryy	.	1.ryy	.
.	.	.	.	.	.	.	32F/	.	.	.	32f 32c/	.	.	.	.	.	.	.	.	.	.	.	.	.
.	.	.	.	.	.	.	32F/	.	.	.	32f 32c/	.	.	.	.	.	.	.	.	.	.	.	.	.
.	.	.	.	.	.	.	32F/JJ	.	.	.	32fJJ 32c/	.	.	.	.	.	.	.	.	.	.	.	.	.
8AA/J)	.	8AA/)	.	.	.	.	8F/J	.	8A/)	.	8fJ 8c/	.	.	.	.	.	.	.	.	.	.	.	.	.
8r	.	8AA'/J	.	.	.	.	8r	.	8A/J	.	8r	.	.	.	.	.	8r	.	.	.	.	.	.	.
*	*	*tremolo	*	*	*	*	*rep	*	*tremolo	*	*rep	*	*	*	*	*	*	*	*	*	*	*	*	*
4AA/	.	8AA/L	.	4c\]	.	.	32F/LLL	.	8A/L	.	32fLLL 32c/	.	.	.	.	.	4ff 4f'\	.	.	.	.	.	.	.
.	.	.	.	.	.	.	32F/	.	.	.	32f 32c/	.	.	.	.	.	.	.	.	.	.	.	.	.
.	.	.	.	.	.	.	32F/	.	.	.	32f 32c/	.	.	.	.	.	.	.	.	.	.	.	.	.
.	.	.	.	.	.	.	32F/JJ	.	.	.	32fJJ 32c/	.	.	.	.	.	.	.	.	.	.	.	.	.
.	.	8AA/	.	.	.	.	8F/J	.	8A/	.	8fJ 8c/	.	.	.	.	.	.	.	.	.	.	.	.	.
8r	.	8AA/J	.	8d-X\)	-li-	.	8r	.	8A/J	.	8r	.	.	.	.	.	8ff 8f'\	.	.	.	.	.	.	.
*	*	*	*	*	*	*	*Xrep	*	*	*	*Xrep	*	*	*	*	*	*	*	*	*	*	*	*	*
*	*	*	*	*	*	*	*rep	*	*	*	*rep	*	*	*	*	*	*	*	*	*	*	*	*	*
4AA/	.	8AA/L	.	4c\	-a	.	32F/LLL	.	8A/L	.	32fLLL 32c/	.	.	.	.	.	4ff 4f'\	.	.	.	.	.	.	.
.	.	.	.	.	.	.	32F/	.	.	.	32f 32c/	.	.	.	.	.	.	.	.	.	.	.	.	.
.	.	.	.	.	.	.	32F/	.	.	.	32f 32c/	.	.	.	.	.	.	.	.	.	.	.	.	.
.	.	.	.	.	.	.	32F/JJ	.	.	.	32fJJ 32c/	.	.	.	.	.	.	.	.	.	.	.	.	.
.	.	8AA/	.	.	.	.	8F/J	.	8A/	.	8fJ 8c/	.	.	.	.	.	.	.	.	.	.	.	.	.
8r	.	8AA/	.	8r	.	.	8r	.	8A/	.	8r	.	.	.	.	.	8r	.	.	.	.	.	.	.
*	*	*	*	*	*	*	*Xrep	*	*	*	*Xrep	*	*	*	*	*	*	*	*	*	*	*	*	*
*	*	*	*	*	*	*	*rep	*	*	*	*rep	*	*	*	*	*	*	*	*	*	*	*	*	*
4AA/	.	8AA/	.	4F\	Tu-	.	32F/LLL	.	8A/	.	32fLLL 32c/	.	.	.	.	.	[4.ff [4.f^\	.	.	.	.	.	.	.
.	.	.	.	.	.	.	32F/	.	.	.	32f 32c/	.	.	.	.	.	.	.	.	.	.	.	.	.
.	.	.	.	.	.	.	32F/	.	.	.	32f 32c/	.	.	.	.	.	.	.	.	.	.	.	.	.
.	.	.	.	.	.	.	32F/JJ	.	.	.	32fJJ 32c/	.	.	.	.	.	.	.	.	.	.	.	.	.
.	.	8AA/	.	.	.	.	8F/J	.	8A/	.	8fJ 8c/	.	.	.	.	.	.	.	.	.	.	.	.	.
8r	.	8AA/J	.	8F\	-o	.	8r	.	8A/J	.	8r	.	.	.	.	.	.	.	.	.	.	.	.	.
*	*	*	*	*	*	*	*Xrep	*	*	*	*Xrep	*	*	*	*	*	*	*	*	*	*	*	*	*
!!LO:PB:g=original
=28	=28	=28	=28	=28	=28	=28	=28	=28	=28	=28	=28	=28	=28	=28	=28	=28	=28	=28	=28	=28	=28	=28	=28	=28
!	!	!	!	!LO:TX:b:t=P:problem=od tego miejsca tekst wpisany ołówkiem	!	!	!	!	!	!	!	!	!	!	!	!	!LO:TX:t=P:problem=brak zakończenia łuków	!	!	!	!	!	!	!
4AA-X/	.	8AA-X/L	.	[4c-X\	Fi-	.	32Bn/LLL	.	8A-X/L	.	32fLLL 32d/	.	1.r	.	1.r	.	4ff] 4f\]	.	1.d 1.BX	.	1.r	.	1.r	.
.	.	.	.	.	.	.	32B/	.	.	.	32f 32d/	.	.	.	.	.	.	.	.	.	.	.	.	.
.	.	.	.	.	.	.	32B/	.	.	.	32f 32d/	.	.	.	.	.	.	.	.	.	.	.	.	.
.	.	.	.	.	.	.	32B/JJ	.	.	.	32fJJ 32d/	.	.	.	.	.	.	.	.	.	.	.	.	.
.	.	8AA-/	.	.	.	.	8B/J	.	8A-/	.	8fJ 8d'/	.	.	.	.	.	.	.	.	.	.	.	.	.
!	!	!	!	!LO:TX:a:t=P:problem=nuta dopisana ołówkiem	!	!	!	!	!	!	!	!	!	!	!	!	!	!	!	!	!	!	!	!
8r	.	8AA-/	.	16c-\]	.	.	8r	.	8A-/	.	8r	.	.	.	.	.	8r	.	.	.	.	.	.	.
!	!	!	!	!LO:TX:a:t=P:problem=nuta dopisana ołówkiem	!	!	!	!	!	!	!	!	!	!	!	!	!	!	!	!	!	!	!	!
.	.	.	.	16c-\	-li-	.	.	.	.	.	.	.	.	.	.	.	.	.	.	.	.	.	.	.
*	*	*	*	*	*	*	*rep	*	*	*	*rep	*	*	*	*	*	*	*	*	*	*	*	*	*
4AA-/	.	8AA-/	.	4c-\	-o	.	32B/LLL	.	8A-/	.	32fLLL 32d/	.	.	.	.	.	4ff 4f\	.	.	.	.	.	.	.
.	.	.	.	.	.	.	32B/	.	.	.	32f 32d/	.	.	.	.	.	.	.	.	.	.	.	.	.
.	.	.	.	.	.	.	32B/	.	.	.	32f 32d/	.	.	.	.	.	.	.	.	.	.	.	.	.
.	.	.	.	.	.	.	32B/JJ	.	.	.	32fJJ 32d/	.	.	.	.	.	.	.	.	.	.	.	.	.
.	.	8AA-/	.	.	.	.	8B/J	.	8A-/	.	8fJ 8d'/	.	.	.	.	.	.	.	.	.	.	.	.	.
8r	.	8AA-/J	.	8c-\	nos	.	8r	.	8A-/J	.	8r	.	.	.	.	.	8ff 8f\	.	.	.	.	.	.	.
*	*	*	*	*	*	*	*Xrep	*	*	*	*Xrep	*	*	*	*	*	*	*	*	*	*	*	*	*
*	*	*	*	*	*	*	*rep	*	*	*	*rep	*	*	*	*	*	*	*	*	*	*	*	*	*
4AA-/	.	8AA-/L	.	4.c-\	re-	.	32B/LLL	.	8A-/L	.	32fLLL 32d/	.	.	.	.	.	4ff 4f\	.	.	.	.	.	.	.
.	.	.	.	.	.	.	32B/	.	.	.	32f 32d/	.	.	.	.	.	.	.	.	.	.	.	.	.
.	.	.	.	.	.	.	32B/	.	.	.	32f 32d/	.	.	.	.	.	.	.	.	.	.	.	.	.
.	.	.	.	.	.	.	32B/JJ	.	.	.	32fJJ 32d/	.	.	.	.	.	.	.	.	.	.	.	.	.
.	.	8AA-/	.	.	.	.	8B/J	.	8A-/	.	8fJ 8d'/	.	.	.	.	.	.	.	.	.	.	.	.	.
8r	.	8AA-/	.	.	.	.	8r	.	8A-/	.	8r	.	.	.	.	.	8r	.	.	.	.	.	.	.
*	*	*	*	*	*	*	*Xrep	*	*	*	*Xrep	*	*	*	*	*	*	*	*	*	*	*	*	*
*	*	*	*	*	*	*	*rep	*	*	*	*rep	*	*	*	*	*	*	*	*	*	*	*	*	*
4AA-/	.	8AA-/	.	4.c-\	-con-	.	32B/LLL	.	8A-/	.	32fLLL 32d/	.	.	.	.	.	[4.ff [4.f\	.	.	.	.	.	.	.
.	.	.	.	.	.	.	32B/	.	.	.	32f 32d/	.	.	.	.	.	.	.	.	.	.	.	.	.
.	.	.	.	.	.	.	32B/	.	.	.	32f 32d/	.	.	.	.	.	.	.	.	.	.	.	.	.
.	.	.	.	.	.	.	32B/JJ	.	.	.	32fJJ 32d/	.	.	.	.	.	.	.	.	.	.	.	.	.
.	.	8AA-/	.	.	.	.	8B/J	.	8A-/	.	8fJ 8d'/	.	.	.	.	.	.	.	.	.	.	.	.	.
8r	.	8AA-/J	.	.	.	.	8r	.	8A-/J	.	8r	.	.	.	.	.	.	.	.	.	.	.	.	.
*	*	*Xtremolo	*	*	*	*	*Xrep	*	*Xtremolo	*	*Xrep	*	*	*	*	*	*	*	*	*	*	*	*	*
=29	=29	=29	=29	=29	=29	=29	=29	=29	=29	=29	=29	=29	=29	=29	=29	=29	=29	=29	=29	=29	=29	=29	=29	=29
!	!	!	!	!	!	!	!	!	!	!	!	!	!LO:SIC:v:s=1.BB-	!	!	!	!	!	!	!	!	!	!	!
(8AA-X^/L	.	(8AA-X^/L	.	[4.B-\	-ci-	.	32B-X/LLL	.	(8A-X^>/L	.	32f/LLL	.	1.BB	.	4r	.	4ff] 4f\]	.	2.f/	.	1.r	.	1.r	.
.	.	.	.	.	.	.	32B-/	.	.	.	32f/	.	.	.	.	.	.	.	.	.	.	.	.	.
.	.	.	.	.	.	.	32B-/	.	.	.	32f/	.	.	.	.	.	.	.	.	.	.	.	.	.
.	.	.	.	.	.	.	32B-/JJ	.	.	.	32f/JJ	.	.	.	.	.	.	.	.	.	.	.	.	.
8GG/J)	.	8GG/)	.	.	.	.	8B-/J	.	8G/)	.	8f/J	.	.	.	.	.	.	.	.	.	.	.	.	.
!	!	!	!	!	!	!	!	!	!	!	!	!	!	!	!	!	!LO:N:vis=1.	!	!	!	!	!	!	!
8r	.	8GG/J	.	.	.	.	8r	.	8G/J	.	8r	.	.	.	8r	pp	1b-@ 1B-@	.	.	.	.	.	.	.
*	*	*tremolo	*	*	*	*	*	*	*	*	*rep	*	*	*	*	*	*	*	*	*	*	*	*	*
4GG'/	.	8GG/L	.	4B-\]	.	.	8B-/L	.	32G/LLL	.	32f/LLL	.	.	.	4b- 4B-/	.	.	.	.	.	.	.	.	.
.	.	.	.	.	.	.	.	.	32B-/	.	32f/	.	.	.	.	.	.	.	.	.	.	.	.	.
.	.	.	.	.	.	.	.	.	32B-/	.	32f/	.	.	.	.	.	.	.	.	.	.	.	.	.
.	.	.	.	.	.	.	.	.	32B-/JJ	.	32f/JJ	.	.	.	.	.	.	.	.	.	.	.	.	.
.	.	8GG/	.	.	.	.	8G/	.	8B-/J	.	8f/J	.	.	.	.	.	.	.	.	.	.	.	.	.
8r	.	8GG/J	.	8c-X\	-li-	.	8G/J	.	8r	.	8r	.	.	.	8b- 8B-/	.	.	.	.	.	.	.	.	.
*	*	*	*	*	*	*	*tremolo	*	*	*	*Xrep	*	*	*	*	*	*	*	*	*	*	*	*	*
4GG'/	.	8GG/L	.	4B-\	-a	.	8G/L	.	32B-/LLL	.	32e-/LLL	.	.	.	4b- 4B-/	.	.	.	4e-/	.	.	.	.	.
.	.	.	.	.	.	.	.	.	32B-/	.	32e-/	.	.	.	.	.	.	.	.	.	.	.	.	.
.	.	.	.	.	.	.	.	.	32B-/	.	32e-/	.	.	.	.	.	.	.	.	.	.	.	.	.
.	.	.	.	.	.	.	.	.	32B-/JJ	.	32e-/JJ	.	.	.	.	.	.	.	.	.	.	.	.	.
.	.	8GG/	.	.	.	.	8G/	.	8B-/J	.	8e-/J	.	.	.	.	.	.	.	.	.	.	.	.	.
8r	.	8GG/	.	8r	.	.	8G/J	.	8r	.	8r	.	.	.	8r	.	.	.	8ryy	.	.	.	.	.
*	*	*	*	*	*	*	*	*	*	*	*rep	*	*	*	*	*	*	*	*	*	*	*	*	*
!	!	!	!	!	!	!	!	!	!	!	!	!	!LO:TX:b:t=cres-cen-do.:problem=dynamics with extention lines	!LO:HP:t=cres-cen-do.	!	!	!	!	!	!	!	!	!	!
4GG'/	.	8GG/	.	4.B-\	et	.	8G/L	.	32B-/LLL	.	32e-/LLL	.	.	<	[4.b- [4.B-/	.	.	.	4.ryy	.	.	.	.	.
.	.	.	.	.	.	.	.	.	32B-/	.	32e-/	.	.	.	.	.	.	.	.	.	.	.	.	.
.	.	.	.	.	.	.	.	.	32B-/	.	32e-/	.	.	.	.	.	.	.	.	.	.	.	.	.
.	.	.	.	.	.	.	.	.	32B-/JJ	.	32e-/JJ	.	.	.	.	.	.	.	.	.	.	.	.	.
.	.	8GG/	.	.	.	.	8G/	.	8B-/J	.	8e-/J	.	.	.	.	.	4ryy	.	.	.	.	.	.	.
8r	.	8GG/J	.	.	.	.	8G/J	.	8r	.	8r	.	.	.	.	.	.	.	.	.	.	.	.	.
*	*	*	*	*	*	*	*Xtremolo	*	*	*	*Xrep	*	*	*	*	*	*	*	*	*	*	*	*	*
=30	=30	=30	=30	=30	=30	=30	=30	=30	=30	=30	=30	=30	=30	=30	=30	=30	=30	=30	=30	=30	=30	=30	=30	=30
!	!	!	!	!	!	!	!LO:TX:t=P:problem=mixed beam	!	!	!	!	!	!LO:N:vis=1	!	!LO:N:vis=1	!	!	!	!	!	!	!	!	!
!	!	!	!	!	!	!	!	!	!	!	!	!	!LO:SIC:v:s=1.BB-	!	!	!	!	!	!	!	!	!	!	!
(1.GG-X	.	(2.GG-X/	.	[4.e-\	Ti-	.	8G-X/L	.	8r	.	8e-/	.	1.BB	.	1.b-_@ 1.B-_@	.	4r	.	1.ryy	.	1.r	.	1.r	.
.	.	.	.	.	.	.	8e-\	.	8e-L 8B-/	.	8r	.	.	.	.	.	.	.	.	.	.	.	.	.
.	.	.	.	.	.	.	8e-\J	.	8e-J 8B-/	.	8r	.	.	.	.	.	8r	.	.	.	.	.	.	.
*	*	*	*	*	*	*	*tremolo	*	*tremolo	*	*	*	*	*	*	*	*	*	*	*	*	*	*	*
.	.	.	.	4e-\]	-[[bi]]-	.	8e-\L	.	8e-L 8B-/	.	4r	.	.	.	.	.	4b- 4B-/	.	.	.	.	.	.	.
!	!	!	!	!	!	!	!	!	!LO:TX:b:t=cres-cen-do.:problem=dynamics with extention lines	!LO:HP:t=cres-cen-do.	!	!	!	!	!	!	!	!	!	!	!	!	!	!
.	.	.	.	.	.	.	8e-\	.	8e- 8B-/	<	.	.	.	.	.	.	.	.	.	.	.	.	.	.
.	.	.	.	8d-X\	-bi	.	8e-\J	.	8e-J 8B-/	.	8r	.	.	.	.	.	8b- 8B-/	.	.	.	.	.	.	.
.	.	4.G-X\)	.	4.c\	re-	.	8e-\L	.	8e-L 8B-/	.	2.r	.	.	.	.	.	4b- 4B-/	.	.	.	.	.	.	.
.	.	.	.	.	.	.	8e-\	.	8e- 8B-/	.	.	.	.	.	.	.	.	.	.	.	.	.	.	.
.	.	.	.	.	.	.	8e-\	.	8e- 8B-/	.	.	.	.	.	.	.	8r	.	.	.	.	.	.	.
!	!	!	!	!	!	!	!	!	!	!	!	!	!	!	!	!	!LO:TX:b:t=cres-cen-do.:problem=dynamics with extention lines	!LO:HP:t=cres-cen-do.	!	!	!	!	!	!
.	.	4.G-\	.	4.B-\	-co-	.	8e-\	.	8e- 8B-/	.	.	.	.	.	.	.	[4.b- [4.B-/	<	.	.	.	.	.	.
.	.	.	.	.	.	.	8e-\	.	8e- 8B-/	.	.	.	.	.	.	.	.	.	.	.	.	.	.	.
.	.	.	.	.	.	.	8e-\J	.	8e-J 8B-/	.	.	.	.	.	.	.	.	.	.	.	.	.	.	.
=31	=31	=31	=31	=31	=31	=31	=31	=31	=31	=31	=31	=31	=31	=31	=31	=31	=31	=31	=31	=31	=31	=31	=31	=31
!	!	!	!	!	!	!	!	!	!	!	!LO:TX:t=col. Oboe.	!	!LO:SIC:v:s=1.BB-	!	!LO:TX:t=Col Corni.	!	!LO:N:vis=1	!	!	!	!	!	!	!
4FF/)	.	1.F	.	2.d-X\	-man-	.	8d-X\L	.	8fL 8B-/	.	[y4.dd-X\yy	.	1.BB	.	4b-]yy 4B-/]yy	.	1.b-_@ 1.B-_@	.	1.r	.	[4.dd-X\	.	1.r	.
.	.	.	.	.	.	.	8d-\	.	8f 8B-/	.	.	.	.	.	.	.	.	.	.	.	.	.	.	.
8r	.	.	.	.	.	.	8d-\	.	8f 8B-/	.	.	.	.	.	8ryy	.	.	.	.	.	.	.	.	.
4r	.	.	.	.	.	.	8d-\	.	8f 8B-/	.	4dd-\]yy	.	.	.	4b-@ 4B-/@	.	.	.	.	.	4dd-\]	.	.	.
.	.	.	.	.	.	.	8d-\	.	8f 8B-/	.	.	.	.	.	.	.	.	.	.	.	.	.	.	.
8r	.	.	.	.	.	.	8d-\	.	8f 8B-/	.	8cc\yy	.	.	.	8b-@ 8B-/@	.	.	.	.	.	8cc\	.	.	.
!	!	!LO:TX:b:t=cres-cen.:problem=dynamics with extention lines	!LO:HP:t=cres-cen.	!	!	!	!	!	!	!	!	!	!	!	!	!	!	!	!	!	!	!	!	!
2.r	.	.	<	4B-\	-da	.	8d-\	.	8f 8B-/	.	4.b-\yy	.	.	.	4b-@ 4B-/@	.	.	.	.	.	4.b-\	.	.	.
.	.	.	.	.	.	.	8d-\	.	8f 8B-/	.	.	.	.	.	.	.	.	.	.	.	.	.	.	.
.	.	.	.	8r	.	.	8d-\	.	8f 8B-/	.	.	.	.	.	8b-@ 8B-/@	.	.	.	.	.	.	.	.	.
.	.	.	.	4.B-\	et	.	8d-\	.	8f 8B-/	.	4.b-\yy	.	.	.	4.ryy	.	.	.	.	.	4.b-\	.	.	.
.	.	.	.	.	.	.	8d-\	.	8f 8B-/	.	.	.	.	.	.	.	.	.	.	.	.	.	.	.
.	.	.	.	.	.	.	8d-\J	.	8fJ 8B-/	.	.	.	.	[[	.	.	.	.	.	.	.	.	.	.
=32	=32	=32	=32	=32	=32	=32	=32	=32	=32	=32	=32	=32	=32	=32	=32	=32	=32	=32	=32	=32	=32	=32	=32	=32
*2/right	*	*	*	*	*	*	*	*	*	*	*	*	*	*	*	*	*	*	*	*	*	*	*	*
!	!	!	!	!	!	!	!	!	!	!	!	!	!LO:SIC:v:s=1.BB-	!	!	!	!	!	!LO:TX:a:t=1mo.	!	!	!	!	!
2.BB-/	f <	(1.G-X	.	[4.e-\	Ti-	.	8e-L 8B-\	.	8e-L 8B-/	.	[y4.b-\yy	.	1.BB	.	[2.b-@ [2.B-/@	.	4b-] 4B-/]	.	[2.G-X/	.	[4.b-\	.	1.r	.
.	.	.	.	.	.	.	8e- 8B-\	.	8e- 8B-/	.	.	.	.	.	.	.	.	.	.	.	.	.	.	.
.	.	.	.	.	.	.	8e- 8B-\	.	8e- 8B-/	.	.	.	.	.	.	.	8r	.	.	.	.	.	.	.
.	.	.	.	4e-\]	.	.	8e- 8B-\	.	8e- 8B-/	.	4b-\]yy	.	.	.	.	.	4b- 4B-/	.	.	.	4b-\]	.	.	.
.	.	.	.	.	.	.	8e- 8B-\	.	8e- 8B-/	.	.	.	.	.	.	.	.	.	.	.	.	.	.	.
.	.	.	.	8d-X\	-bi	.	8e- 8B-\	.	8e- 8B-/	.	8ee-\yy	.	.	.	.	.	8b- 8B-/	.	.	.	8ee-\	.	.	.
.	.	.	[	8qd-/	.	.	.	.	.	.	.	.	.	.	.	.	.	[	.	.	.	.	.	.
(4.BB-/	[	.	.	(8c\L	re-	.	8e- 8B-\	.	8e- 8B-/	.	[y4.ee-\yy	.	.	.	8b-]L@ 8B-/]@	.	4b- 4B-/	.	4.G-/_	.	[4.ee-\	.	.	.
.	.	.	.	8B-\	.	.	8e- 8B-\	.	8e- 8B-/	.	.	.	.	.	8b-@ 8B-/@	.	.	.	.	.	.	.	.	.
.	.	.	.	8c\J	.	.	8e- 8B-\	.	8e- 8B-/	.	.	.	.	.	8b-J@ 8B-/@	.	8r	.	.	.	.	.	.	.
*	*	*	*	*	*	*	*	*	*	*	*	*	*	*	*tremolo	*	*	*	*	*	*	*	*	*
4.BB-/	.	.	.	4d-\)	.	.	8e- 8B-\	.	8e- 8B-/	[	4ee-\]yy	.	.	.	8b-L@ 8B-/@	.	4b- 4B-/	.	4G-/]	.	4ee-\]	.	.	.
.	.	.	.	.	.	.	8e- 8B-\	.	8e- 8B-/	.	.	.	.	.	8b-@ 8B-/@	.	.	.	.	.	.	.	.	.
.	.	.	.	8B-\	-pre-	.	8e-J 8B-\	.	8e-J 8B-/	.	8gg-X\yy	.	.	.	8b-J@ 8B-/@	.	8r	.	8r	.	8gg-X\	.	.	.
*	*	*	*	*	*	*	*	*	*	*	*	*	*	*	*Xtremolo	*	*	*	*	*	*	*	*	*
!!LO:PB:g=original
=33	=33	=33	=33	=33	=33	=33	=33	=33	=33	=33	=33	=33	=33	=33	=33	=33	=33	=33	=33	=33	=33	=33	=33	=33
*2/left	*	*	*	*	*	*	*	*	*	*	*	*	*	*	*	*	*	*	*	*	*	*	*	*
!	!LO:DY:t=sff.	!	!LO:DY:rj:t=sff.	!	!	!	!	!LO:DY:rj:t=sff	!	!LO:DY:rj:t=sff	!	!LO:DY:rj:t=sff	!LO:SIC:v:s=2.E-tt\	!LO:DY:rj:t=sff.	!	!LO:DY:rj:t=sff	!	!LO:DY:rj:t=sff	!	!LO:DY:rj:t=sff.	!	!LO:DY:rj:t=sff.	!LO:TX:a:t=c.	!LO:DY:rj
!LO:TX:t=P:problem=brak zakończenia łuku	!	!LO:TX:t=P:problem=brak zakończenia łuku	!	!	!	!	!	!	!	!	!	!	!	!	!	!	!	!	!	!	!	!	!LO:TX:a:t=es.	!
2.C/)	sf	2.C 2.CC/)	sf	(4A\j	-sen-	.	8e-L 8c\	sf	8e-L 8c/	sf	[4.gg-X [4.a\	sf	2.Ett\	sf >	[4.cc [4.e-/	sf >	[4.ee- [4.cc\	sf >	[2.cc [>2.a\	sf	[4.gg-X\	sf >	[4.eee- [4.ccc\	sf >
.	>	.	.	.	.	.	8e- 8c\	.	8e- 8c/	.	.	.	.	.	.	.	.	.	.	.	.	.	.	.
.	.	.	>	8B-\)j	.	.	8e- 8c\	>	8e- 8c/	>	.	>	.	.	.	.	.	.	.	>	.	.	.	.
.	.	.	.	4c\j	-ta	.	8e- 8c\	.	8e- 8c/	.	4gg-] 4a\]	.	.	.	4cc] 4e-/]	]	4ee-] 4cc\]	]	.	.	4gg-\]	]	4eee-] 4ccc\]	]
.	.	.	.	.	.	.	8e- 8c\	.	8e- 8c/	.	.	.	.	.	.	.	.	.	.	.	.	.	.	.
.	.	.	.	8rj	.	.	8e-J 8c\	.	8e-J 8c/	.	16ee-\LL	.	.	.	8r	.	8r	.	.	]	16ee-\LL	.	8r	.
.	.	.	.	.	.	.	.	]	.	]	16cc\JJ	.	.	.	.	.	.	.	.	.	16cc\JJ	.	.	.
*	*	*	*	*	*	*	*	*	*Xtremolo	*	*	*	*	*	*	*	*	*	*	*	*	*	*	*
!	!	!	!	!	!	!	!	!	!	!	!	!	!LO:SIC:v:s=4E-\	!	!	!	!	!	!	!	!	!	!	!
4.C/	] p	4.C/	] p	2.rj	.	.	8c\L	.	8e-/L	p	8a/L	]	4E\	]	4r	.	4r	.	4cc] 4a\]	]	4a/	.	4r	.
.	.	.	.	.	.	.	8c\	.	8A/	.	8e-/	.	.	.	.	.	.	.	.	.	.	.	.	.
.	.	.	.	.	.	.	8c\J	.	8A/J	.	8e-/J	.	8r	.	8r	.	8r	.	8r	.	8r	.	8r	.
*	*	*	*	*	*	*	*	*	*tremolo	*	*tremolo	*	*	*	*	*	*	*	*	*	*	*	*	*
4.C/	.	4.C/	.	.	.	.	8c\L	.	8A/L	.	8e-/L	.	4r	.	4r	.	4r	.	4r	.	4r	.	4r	.
.	.	.	.	.	.	.	8A\	.	8A/	.	8e-/	.	.	.	.	.	.	.	.	.	.	.	.	.
.	.	.	.	.	.	.	8F\J	.	8A/J	.	8e-/J	.	8r	.	8r	.	8r	.	8r	pp	8r	.	8r	.
=34	=34	=34	=34	=34	=34	=34	=34	=34	=34	=34	=34	=34	=34	=34	=34	=34	=34	=34	=34	=34	=34	=34	=34	=34
*	*	*	*	*	*	*	*	*	*	*	*	*	*	*	*	*	*	*	*	*	*	*	*^	*
!	!	!	!	!	!	!	!	!LO:DY:rj	!	!LO:DY:rj	!	!	!	!	!	!	!	!	!	!	!	!LO:DY:rj	!	!	!LO:DY:a:rj
1.C	pp	[1.C	pp	2.d\	Do-	.	8F#X/L	pp	8A/L	pp	8d/L	pp	1.r	.	1.r	.	1.r	.	(2.A 2.F#X/	.	(2.d/	pp	(2.ddd\	1.r	pp
.	.	.	.	.	.	.	8F#/	.	8A/	.	8d/	.	.	.	.	.	.	.	.	.	.	.	.	.	.
.	.	.	.	.	.	.	8F#/	.	8A/	.	8d/	.	.	.	.	.	.	.	.	.	.	.	.	.	.
.	.	.	.	.	.	.	8F#/	.	8A/	.	8d/	.	.	.	.	.	.	.	.	.	.	.	.	.	.
.	.	.	.	.	.	.	8F#/	.	8A/	.	8d/	.	.	.	.	.	.	.	.	.	.	.	.	.	.
.	.	.	.	.	.	.	8F#/J	.	8A/J	.	8d/J	.	.	.	.	.	.	.	.	.	.	.	.	.	.
.	.	.	.	4.B-\	-mi-	.	8G/L	.	8B-/L	.	8en/L	.	.	.	.	.	.	.	4.B- 4.G/	.	4.en/	.	4.bb-\	.	.
.	.	.	.	.	.	.	8G/	.	8B-/	.	8e/	.	.	.	.	.	.	.	.	.	.	.	.	.	.
.	.	.	.	.	.	.	8G/J	.	8B-/J	.	8e/J	.	.	.	.	.	.	.	.	.	.	.	.	.	.
.	.	.	.	4.F#X\	-na	.	8A/L	.	8c/L	.	8f#X/L	.	.	.	.	.	.	.	4.c 4.A/)	.	4.f#X/)	.	4.ff#X\)	.	.
.	.	.	.	.	.	.	8A/	.	8c/	.	8f#/	.	.	.	.	.	.	.	.	.	.	.	.	.	.
.	.	.	.	.	.	.	8A/J	.	8c/J	.	8f#/J	.	.	.	.	.	.	.	.	.	.	.	.	.	.
*	*	*	*	*	*	*	*	*	*	*	*	*	*	*	*	*	*	*	*	*	*	*	*v	*v	*
=35	=35	=35	=35	=35	=35	=35	=35	=35	=35	=35	=35	=35	=35	=35	=35	=35	=35	=35	=35	=35	=35	=35	=35	=35
*	*	*	*	*	*	*	*	*	*	*	*	*	*	*	*	*	*	*	*^	*	*	*	*	*
[4.C/	.	4.C/_	.	([4.A\	no-	.	8A/L	.	8e-/L	.	8f#X/L	.	1.ryy	.	1.b-	.	1.r	.	[2.e-/	4.A\	.	([4.a/	.	[4.aa\	.
.	.	.	.	.	.	.	8A/	.	8e-/	.	8f#/	.	.	.	.	.	.	.	.	.	.	.	.	.	.
.	.	.	.	.	.	.	8A/J	.	8e-/	.	8f#/J	.	.	.	.	.	.	.	.	.	.	.	.	.	.
4C/]	.	4C/]	.	4A\]	.	.	8B-/L	.	8e-/	.	8g/L	.	.	.	.	.	.	.	.	4.G\	.	4a/]	.	4aa\]	.
.	.	.	.	.	.	.	8B-/	.	8e-/	.	8g/	.	.	.	.	.	.	.	.	.	.	.	.	.	.
8BB-/	.	8BB-/	.	8G\)	.	.	8B-/J	.	8e-/J	.	8g/J	.	.	.	.	.	.	.	.	.	.	8g/	.	8gg\	.
*	*	*	*	*	*	*	*	*	*Xtremolo	*	*Xtremolo	*	*	*	*	*	*	*	*	*	*	*	*	*	*
8AA/	.	8AA/	.	4F\	-stra	.	8c/	.	8e-/	.	8fn'/L	<	.	.	.	.	.	.	4e-/]	4c\	.	4fn/)	.	4ffn\	.
8F\L	<	8F\L	.	.	.	.	8A|/L	.	8c|/L	.	8f|/	.	.	.	.	.	.	.	.	.	.	.	.	.	.
8En\J	.	8En\J	.	8rj	.	.	8B-|/J	<	8c|/J	<	8g|/J	.	.	.	.	.	.	.	8r	8ryy	.	8r	.	8r	.
8E-X\L	.	8E-X\L	.	4rj	.	.	8c|/L	.	8f|/L	.	8a|/L	.	.	.	.	.	.	.	4r	4ryy	.	4r	.	4r	.
8D\	[	8D\	.	.	.	.	8B-|/	.	8f|/	.	8b-|/	.	.	.	.	.	.	.	.	.	.	.	.	.	.
8C\J	.	8C\J	.	8rj	.	.	8e-|/J	[	8a|/J	[	8ccJ 8f|/	[[	.	.	.	.	.	fp	8r	8ryy	.	8r	.	8r	.
*	*	*	*	*	*	*	*	*	*	*	*	*	*	*	*	*	*	*	*v	*v	*	*	*	*	*
=36	=36	=36	=36	=36	=36	=36	=36	=36	=36	=36	=36	=36	=36	=36	=36	=36	=36	=36	=36	=36	=36	=36	=36	=36
*	*	*	*	*	*	*	*	*	*tremolo	*	*	*	*	*	*	*	*tremolo	*	*	*	*	*	*	*
4BB-/	f	(8BB-/L	.	[4.d\	ad-	.	8fL 8B-\	.	8b-L 8d/	.	[4.dd\	.	1.ryy	.	1.ryy	.	8b-L 8B-/	.	1.r	.	1.r	.	1.r	.
!	!	!	!	!	!	!	!	!	!	!	!	!LO:DY:t=f.	!	!	!	!	!	!	!	!	!	!	!	!
.	.	8D/)	f	.	.	.	8f 8B-\	f	8b- 8d/	f	.	f	.	.	.	.	8b- 8B-/	.	.	.	.	.	.	.
8r	.	8F/J	.	.	.	.	8fJ 8B-\	.	8b-J 8d/	.	.	.	.	.	.	.	8b- 8B-/	.	.	.	.	.	.	.
4BB-/	.	(8B-\L	.	4d\]	.	.	8f\L	.	8b-L 8d/	.	4dd\]	.	.	.	.	.	8b- 8B-/	.	.	.	.	.	.	.
.	.	8d\)	.	.	.	.	8f\	.	8b- 8d/	.	.	.	.	.	.	.	8b- 8B-/	.	.	.	.	.	.	.
8r	>	8f\J	.	8d\	-vo-	.	8f\J	.	8b-J 8d/	.	8dd\	.	.	.	.	.	8b- 8B-/	.	.	.	.	.	.	.
4BB-/	.	4F\	.	(8f\L	-ca-	.	(8a\L	.	(8cc\L	.	(8ff\L	.	.	.	.	.	8b- 8B-/	.	.	.	.	.	.	.
.	.	.	.	8e-\J	.	.	8g\)	.	8b-\)	.	8ee-\)	>	.	.	.	.	8b- 8B-/	.	.	.	.	.	.	.
8r	.	8r	.	8d\	.	.	8f'\J	.	8a|\J	>	8dd|\J	.	.	.	.	.	8b- 8B-/	.	.	.	.	.	.	.
4BB-/	]	4B-\	.	8c\L	.	.	8e-'\L	.	8g|/L	.	8cc|\L	.	.	.	.	.	8b- 8B-/	.	.	.	.	.	.	.
.	.	.	.	8B-\J)	.	.	8d'\	.	8f|/	]	8b-|\	.	.	.	.	.	8b- 8B-/	.	.	.	.	.	.	.
8r	.	8r	.	8A\	-ta	.	8c'\J	.	8e-|/J	.	8a|\J	]	.	.	.	.	8b-J 8B-/	pp	.	.	.	.	.	.
=37	=37	=37	=37	=37	=37	=37	=37	=37	=37	=37	=37	=37	=37	=37	=37	=37	=37	=37	=37	=37	=37	=37	=37	=37
!	!	!	!	!	!	!	!	!	!	!	!	!	!	!	!	!	!LO:N:vis=1.	!	!	!	!	!	!	!
4FF/	.	(2.B-\	.	(4.G\	no-	.	8c/L	.	8e-/L	p	(4.g/	p	1.ryy	.	1.ryy	.	[2.f [2.F	.	1.r	.	4r	.	1.r	.
.	.	.	.	.	.	.	8c/	.	8e-/	.	.	.	.	.	.	.	.	.	.	.	.	.	.	.
8r	.	.	.	.	.	.	8c/	.	8e-/	.	.	.	.	.	.	.	.	.	.	.	8r	.	.	.
4F\	.	.	.	4.c\)	.	.	8c/	.	8e-/	.	4.g-X/	.	.	.	.	.	.	.	.	.	(4.cc/	p	.	.
.	.	.	.	.	.	.	8c/	.	8e-/	.	.	.	.	.	.	.	.	.	.	.	.	.	.	.
8r	.	.	.	.	.	.	8c/J	.	8e-/J	.	.	.	.	.	.	.	.	.	.	.	.	.	.	.
*	*	*	*	*	*	*	*	*	*	*	*tremolo	*	*	*	*	*	*	*	*	*	*	*	*	*
*	*	*	*	*	*	*	*	*	*	*	*2/left	*	*	*	*	*	*	*	*	*	*	*	*	*
!	!	!	!	!	!	!	!	!	!LO:TX:t=P:problem=mixed beam	!	!	!	!	!	!	!	!LO:N:vis=4	!	!	!	!	!	!	!
4F\	.	4A\)	.	4F\	-stra	.	8c/L	.	8e-/L	.	8f/L)	.	.	.	.	.	2.f] 2.F]	.	.	.	4f/)	.	.	.
.	.	.	.	.	.	.	8G/	.	8c/	.	8f/	.	.	.	.	.	.	.	.	.	.	.	.	.
8r	.	8ryy	.	8r	.	.	8e-/J	.	8cc\J	.	8f/	.	.	.	.	.	.	.	.	.	8r	.	.	.
4r	.	4.ryy	.	4r	.	.	8e-\L	.	8cc\L	.	8f/	.	.	.	.	.	.	.	.	.	4r	.	.	.
.	.	.	.	.	.	.	8e-\	.	8cc\	.	8f/	.	.	.	.	.	.	.	.	.	.	.	.	.
8r	.	.	.	8r	.	.	8e-\J	.	8cc\J	.	8f/J	.	.	.	.	.	.	.	.	.	8r	.	.	.
*	*	*	*	*	*	*	*Xtremolo	*	*	*	*	*	*	*	*	*	*	*	*	*	*	*	*	*
!!LO:PB:g=original
=38	=38	=38	=38	=38	=38	=38	=38	=38	=38	=38	=38	=38	=38	=38	=38	=38	=38	=38	=38	=38	=38	=38	=38	=38
*	*	*	*	*	*	*	*	*	*	*	*	*	*	*	*	*	*	*	*^	*	*	*	*	*
!	!	!	!	!	!	!	!	!LO:DY:rj	!	!LO:DY:rj	!	!LO:DY:rj	!	!	!	!	!	!	!	!LO:N:vis=2	!	!	!	!	!
2.r	.	4.A-X\	.	[4.B-\	con-	.	4.A-X/	p	8b-L 8d/	p	8f/L	p	1.ryy	.	1.ryy	.	1.ryy	.	([<4.b-/	2.r	.	1.r	.	([4.bb-\	.
.	.	.	.	.	.	.	.	.	8b- 8d/	.	8f/	.	.	.	.	.	.	.	.	.	.	.	.	.	.
.	.	.	.	.	.	.	.	.	8b-J 8d/	.	8f/J	.	.	.	.	.	.	.	.	.	.	.	.	.	.
.	.	4.G\	.	4B-\]	.	.	4.G/	.	8b-L 8e-/	.	8e-/L	.	.	.	.	.	.	.	4b-/]	.	.	.	.	4bb-\]	.
.	.	.	.	.	.	.	.	.	8b- 8e-/	.	8e-/	.	.	.	.	.	.	.	.	.	.	.	.	.	.
.	.	.	.	8B-\	-so-	.	.	.	8b-J 8e-/	.	8e-/J	.	.	.	.	.	.	.	8ee-/	.	.	.	.	8eee-\	.
4r	.	4.F\	.	4.B-\	-la-	.	4.F/	.	8b-L 8d/	.	8f/L	.	.	.	.	.	.	.	8dd/)	4r	.	.	.	8ddd\)	.
.	.	.	.	.	.	.	.	.	8b- 8d/	.	8f/	.	.	.	.	.	.	.	8r	.	.	.	.	8r	.
8r	.	.	.	.	.	.	.	.	8b-J 8d/	.	8f/J	.	.	.	.	.	.	.	(8cc/	8r	.	.	.	(8ccc\	.
4.BB-/	.	4.BB-/	.	4.B-\	-trix	.	[4.B-/	.	8f/L	.	8b-L 8d/	.	.	.	.	.	.	.	4b-/	(4.d\	.	.	.	4bb-\	.
.	.	.	.	.	.	.	.	.	8f/	.	8b- 8d/	.	.	.	.	.	.	.	.	.	.	.	.	.	.
.	.	.	.	.	.	.	.	.	8f/J	.	8b-J 8d/	.	.	.	.	.	.	.	8a-X/	.	.	.	.	8aa-X\	.
=39	=39	=39	=39	=39	=39	=39	=39	=39	=39	=39	=39	=39	=39	=39	=39	=39	=39	=39	=39	=39	=39	=39	=39	=39	=39
!	!	!	!LO:HP:t=crescendo.	!	!	!	!	!	!	!	!	!	!	!	!	!	!	!	!	!	!	!	!	!	!
4.E-/	.	4.E-/	<	[2.B-\	no-	.	2.B-/_	.	8g/L	.	8b-L 8e-/	.	1.r	.	1.r	.	2.r	.	[4.g/	[4.e-\)	.	1.r	.	[4.gg\	.
.	.	.	.	.	.	.	.	.	8g/	.	8b- 8e-/	.	.	.	.	.	.	.	.	.	.	.	.	.	.
!	!	!	!	!	!	!	!	!	!	!	!LO:TX:b:t=cres-cen-do.:problem=dynamics with extention lines	!LO:HP:t=cres-cen-do.	!	!	!	!	!	!	!	!	!	!	!	!	!
.	.	.	.	.	.	.	.	.	8g/J	.	8b-J 8e-/	<	.	.	.	.	.	.	.	.	.	.	.	.	.
*	*	*	*	*	*	*	*	*	*Xtremolo	*	*	*	*	*	*	*	*	*	*	*	*	*	*	*	*
4.BB-/	.	4.BB-/	.	.	.	.	.	.	8g/L	.	8b-L 8e-/	.	.	.	.	.	.	.	4g/]	4e-\]	.	.	.	4gg\]	.
.	.	.	.	.	.	.	.	.	8g/	.	8b- 8e-/	.	.	.	.	.	.	.	.	.	.	.	.	.	.
.	.	.	.	.	.	.	.	.	8f/J	.	8b-J 8e-/	.	.	.	.	.	.	.	8a-X/	8f\	.	.	.	8aa-X\	.
*	*	*	*	*	*	*	*	*	*tremolo	*	*	*	*	*	*	*	*	*	*	*	*	*	*	*	*
4.E-/	.	4.E-/	.	4.B-\]	.	.	4.B-/]	.	8gL 8G/	.	8e-/L	.	.	.	.	.	4r	.	4.b-/)	4g\	.	.	.	4.bb-\)	.
.	.	.	.	.	.	.	.	.	8g 8G/	.	8e-/	.	.	.	.	.	.	.	.	.	.	.	.	.	.
.	.	.	.	.	.	.	.	.	8g 8G/	.	8e-/J	.	.	.	.	.	8r	.	.	8r	.	.	.	.	.
!	!	!	!	!	!	!	!	!	!	!	!	!	!	!	!	!	!	!	!LO:N:vis=4	!	!	!	!	!	!
4.D-X/	.	4.D-X/	.	4.Bn\	-stra	.	4.Bn/	.	8g 8G/	.	8f/L	.	.	.	.	.	(4.ff (<4.f\	.	4.bX/	4r	.	.	.	4.bbn\	.
.	.	.	.	.	.	.	.	.	8g 8G/	.	8f/	.	.	.	.	.	.	.	.	.	.	.	.	.	.
.	.	.	.	.	.	.	.	.	8gJ 8G/	.	8f/J	.	.	.	.	.	.	.	.	8r	.	.	.	.	.
=40	=40	=40	=40	=40	=40	=40	=40	=40	=40	=40	=40	=40	=40	=40	=40	=40	=40	=40	=40	=40	=40	=40	=40	=40	=40
*	*	*	*	*	*	*	*	*	*	*	*	*	*	*	*	*	*^	*	*	*	*	*	*	*	*
*2/right	*	*	*	*	*	*	*	*	*	*	*	*	*	*	*	*	*	*	*	*	*	*	*	*	*	*
[2.C/	.	4.C\	.	[4.c\	me-	.	4.c/	.	8gL 8c/	.	8enL 8c/	.	1.r	.	1.r	.	4cc/))	4cc\	.	[4.cc/	4.eX\	.	([4.cc\	.	([4.ccc\	.
.	.	.	.	.	.	.	.	.	8g 8c/	.	8e 8c/	.	.	.	.	.	.	.	.	.	.	.	.	.	.	.
.	.	.	.	.	.	.	.	.	8gJ 8c/	.	8eJ 8c/	.	.	.	.	.	8r	8ryy	.	.	.	.	.	.	.	.
.	.	4.A\	.	4c\]	.	.	4.A/	.	8aL 8c/	.	8fL 8c/	.	.	.	.	.	4r	4ryy	.	8cc/]	4.f\	.	4cc\]	.	4ccc\]	.
.	.	.	.	.	.	.	.	.	8a 8c/	.	8f 8c/	.	.	.	.	.	.	.	.	8r	.	.	.	.	.	.
.	.	.	.	8c\	-di-	.	.	.	8aJ 8c/	.	8fJ 8c/	.	.	.	.	.	8r	8ryy	.	8r	.	.	8ff\	.	8fff\	.
!	!	!	!	!	!	!	!	!	!	!	!	!	!	!	!	!	!	!	!	!	!	!	!	!	!LO:TX:b:t=cres-cen-:problem=dynamics with extention lines	!LO:HP:t=cres-cen-
4.C/]	.	4.G\	.	4.c\	-a-	.	4.G/	.	8b-/L	.	8eL 8c/	.	.	.	.	.	2.r	2.ryy	.	4r	4g\	.	8een\)	.	8eeen\)	<
.	.	.	.	.	.	.	.	.	8b-/	.	8e 8c/	.	.	.	.	.	.	.	.	.	.	.	8r	.	8r	.
.	.	.	.	.	.	.	.	.	8b-/J	.	8eJ 8c/	.	.	.	.	.	.	.	.	8r	8rd	.	(8dd\	.	(8ddd\	.
4.En\	.	4.En\	.	4.c\	-trix	.	4.En/	.	8gL 8c/	.	8b-/L	.	.	.	.	.	.	.	.	4r	4rd	.	4cc\	.	4ccc\	.
.	.	.	.	.	.	.	.	.	8g 8c/	.	8b-/	.	.	.	.	.	.	.	.	.	.	.	.	.	.	.
.	.	.	.	.	.	.	.	.	8gJ 8c/	.	8b-/J	.	.	.	.	.	.	.	.	8r	8rd	.	8b-\	.	8bb-\	.
*	*	*	*	*	*	*	*	*	*	*	*	*	*	*	*	*	*v	*v	*	*	*	*	*	*	*	*
=41	=41	=41	=41	=41	=41	=41	=41	=41	=41	=41	=41	=41	=41	=41	=41	=41	=41	=41	=41	=41	=41	=41	=41	=41	=41
*	*	*	*	*	*	*	*	*	*	*	*	*	*	*	*^	*	*	*	*	*	*	*	*	*^	*
!	!	!	!	!	!	!	!	!	!	!	!	!	!	!	!	!	!	!	!	!LO:TX:a:t=1mo	!	!	!	!	!	!	!
4.F\	.	4.F\	<	[2.c\	no-	.	8F/L	.	8f/L	.	8a\L	[	1.r	.	2.r	1.r	.	1.r	.	[<4.f/	4.ryy	.	[4.a\)	.	[4.aa\	2.r	.
.	.	.	.	.	.	.	8c/	<	8f/	<	8a\	.	.	.	.	.	.	.	.	.	.	.	.	.	.	.	.
.	.	.	.	.	.	.	8c/J	.	8f/J	.	8a\J	.	.	.	.	.	.	.	.	.	.	.	.	.	.	.	.
*	*	*	*	*	*	*	*tremolo	*	*Xtremolo	*	*Xtremolo	*	*	*	*	*	*	*	*	*	*	*	*	*	*	*	*
4.C\	.	4.C\	.	.	.	.	8c/L	.	8f/L	.	8a\L	<	.	.	.	.	.	.	.	4f/]	2.r	.	4a\]	.	4aa\]	.	.
.	.	.	.	.	.	.	8c/	.	8f/	.	8a\	.	.	.	.	.	.	.	.	.	.	.	.	.	.	.	.
.	.	.	.	.	.	.	8c/J	.	8g/J	.	8b-\J	.	.	.	.	.	.	.	.	8g/	.	.	8b-\	.	8bb-\	.	[
*	*	*	*	*	*	*	*Xtremolo	*	*tremolo	*	*tremolo	*	*	*	*	*	*	*	*	*	*	*	*	*	*	*	*
!	!	!	!	!	!	!	!	!	!	!	!	!	!	!	!	!	!	!	!	!	!	!	!LO:N:vis=4	!	!	!	!
4.F\	.	4.F\	.	4.c\]	.	.	8c\L	.	8a\L	.	8cc\L	.	.	.	4r	.	.	.	.	4.a/	.	.	4.cc\	.	4.ccc\)	4r	.
.	.	.	.	.	.	.	8f\	.	8a\	[	8cc\	.	.	.	.	.	.	.	.	.	.	.	.	.	.	.	.
.	.	.	.	.	.	.	8f\J	[	8a\J	.	8cc\J	.	.	.	8r	.	.	.	.	.	.	.	.	.	.	8r	.
*	*	*	*	*	*	*	*	*	*Xtremolo	*	*	*	*	*	*	*	*	*	*	*	*	*	*	*	*	*	*
!	!	!	!	!	!	!	!LO:TX:t=P:problem=mixed beam	!	!	!	!	!	!	!	!	!	!	!	!	!LO:TX:a:t=1mo	!	!	!LO:N:vis=8	!	!LO:TX:t=P:problem=brak kropki w górnym głosie	!	!
4.E-X\	.	4.E-X\	[	4.c#X\	-stra	.	8g\L	.	8a/L	.	8cc#X\L	[	.	.	(<4.g^/	.	.	.	.	4.ryy	4.c#X\	.	4.cc#X\	.	4.ccc#X 4.cc#X\	4.ryy	.
.	.	.	.	.	.	.	8G/	.	8g 8G/	.	8cc#\	.	.	.	.	.	.	.	.	.	.	.	.	.	.	.	.
!	!	!	!	!	!	!	!	!	!	!	!	!	!	!	!	!	!	!	!	!LO:TX:a:t=2do	!	!	!	!	!	!	!
.	.	.	.	.	.	.	8G/J	.	8gJ 8G/	.	8cc#\J	.	.	.	.	.	.	.	.	.	.	.	.	.	.	.	.
*	*	*	*	*	*	*	*	*	*	*	*Xtremolo	*	*	*	*	*	*	*	*	*	*	*	*	*	*	*	*
*	*	*	*	*	*	*	*	*	*	*	*	*	*	*	*	*	*	*	*	*	*	*	*	*	*v	*v	*
=42	=42	=42	=42	=42	=42	=42	=42	=42	=42	=42	=42	=42	=42	=42	=42	=42	=42	=42	=42	=42	=42	=42	=42	=42	=42	=42
*	*	*	*	*	*	*	*	*	*	*	*	*	*	*	*	*	*	*^	*	*	*	*	*	*	*	*
*	*	*	*	*	*	*	*tremolo	*	*tremolo	*	*	*	*	*	*	*2\right	*	*	*	*	*	*	*	*	*	*	*
!	!	!	!	!	!	!	!	!	!	!	!	!	!	!	!	!	!	!LO:DY:rj	!	!	!	!	!	!	!	!	!
4D\	.	4D\	f	[4.d\	San-	.	8A/L	f	8f#X/L	f	([4.dd\	f	1.r	.	4d/)	2.d\	f	[2.dd/	[2.d\	f	(4.a/	[4.d\	f	(4dd\	f	([4.ddd [4.dd\	f
.	.	.	.	.	.	.	8A/	.	8f#/	.	.	.	.	.	.	.	.	.	.	.	.	.	.	.	.	.	.
8r	.	8r	.	.	.	.	8A/J	.	8f#/J	.	.	.	.	.	8ryy	.	>	.	.	>	.	.	.	8ccn\	.	.	.
2.D\	sf	2.D\	sf >	4d\]	.	.	8Bn/L	>	8g/L	>	4dd\]	>	.	.	4.ryy	.	.	.	.	.	4.g/	4d\]	.	4.bn\	.	4ddd] 4dd\]	>
.	.	.	.	.	.	.	8B/	.	8g/	.	.	.	.	.	.	.	.	.	.	.	.	.	>	.	.	.	.
.	.	.	.	8d\	-cta	.	8B/J	.	8g/J	.	8gg\	.	.	.	.	.	.	.	.	.	.	8g\	.	.	.	8ggg 8gg\	.
.	.	.	.	4.d\	ma-	.	8c/L	.	8a/L	.	4ff#X\	.	.	.	8d/	8d\	]	8dd/]	8d\]	.	8f#X/)	4f#\	.	8a\)	.	4fff#X 4ff#X\	.
.	.	.	.	.	.	.	8c/	.	8a/	.	.	.	.	.	8r	8ryy	.	8r	8ryy	]	8r	.	.	8r	.	.	.
.	.	.	.	.	.	.	8c/J	.	8a/J	.	8een\	.	.	.	8r	8ryy	.	8r	8ryy	p	8r	8eX\	]]	8r	.	8eeen 8een\	]
!	!	!	!	!LO:N:vis=4	!	!	!	!	!	!	!	!	!	!	!	!	!	!	!	!	!	!	!	!	!	!	!
4.D\	.	4.D\	]	4.d\	-ter	.	8A/L	.	8f#X/L	.	4dd\	.	.	.	4r	4ryy	.	8dd/	8d\	.	8f#/	4d\	.	8a\	.	4ddd 4dd\	.
.	.	.	.	.	.	.	8A/	.	8f#/	]	.	]	.	.	.	.	.	8r	8ryy	.	8r	.	.	8r	.	.	.
.	.	.	.	.	.	.	8A/J	]]	8f#/J	.	8cc\)	.	.	.	8r	8ryy	.	8r	8ryy	.	8r	8d\	.	8r	.	8ccc 8cc\)	.
*	*	*	*	*	*	*	*	*	*	*	*	*	*	*	*v	*v	*	*	*	*	*	*	*	*	*	*	*
!!LO:PB:g=original
=43	=43	=43	=43	=43	=43	=43	=43	=43	=43	=43	=43	=43	=43	=43	=43	=43	=43	=43	=43	=43	=43	=43	=43	=43	=43	=43
*	*	*	*	*	*	*	*	*	*	*	*	*	*	*	*	*	*	*	*	*	*	*	*	*	*^	*
!	!LO:DY:rj	!	!LO:DY:rj	!	!	!	!	!LO:DY:rj	!	!LO:DY:rj	!	!LO:DY:rj	!	!	!	!	!	!	!LO:DY:rj	!LO:TX:a:t=1mo.	!	!LO:DY:rj	!	!	!	!	!LO:DY:rj
2.G\	pp	2.G\	pp	([4.d\	San-	.	8d\L	p	8f/L	p	(2.bn\	p	1.r	.	1.r	.	2.dd/	1.g	pp	2.f/	1.r	pp	4g/	.	(2.bbn\	4bn\	pp
.	.	.	.	.	.	.	8d\	.	8f/	.	.	.	.	.	.	.	.	.	.	.	.	.	.	.	.	.	.
.	.	.	.	.	.	.	8d\	.	8f/	.	.	.	.	.	.	.	.	.	.	.	.	.	8r	.	.	8r	.
.	.	.	.	4d\]	.	.	8d\	.	8f/	.	.	.	.	.	.	.	.	.	.	.	.	.	4r	.	.	4r	.
.	.	.	.	.	.	.	8d\	.	8f/	.	.	.	.	.	.	.	.	.	.	.	.	.	.	.	.	.	.
.	.	.	.	8f\	.	.	8d\J	.	8f/J	.	.	.	.	.	.	.	.	.	.	.	.	.	8r	.	.	8r	.
2.C\	.	2.C\	.	4en\)	.	.	8en\L	.	8g/L	.	2.b-X\)	.	.	.	.	.	[2.cc/	.	.	2.eX/	.	.	2.r	.	2.bb-X\	2.r	.
.	.	.	.	.	.	.	8e\	.	8g/	.	.	.	.	.	.	.	.	.	.	.	.	.	.	.	.	.	.
.	.	.	.	8d\	-cta	.	8e\	.	8g/	.	.	.	.	.	.	.	.	.	.	.	.	.	.	.	.	.	.
.	.	.	.	4c\	ma-	.	8e\	.	8g/	.	.	.	.	.	.	.	.	.	.	.	.	.	.	.	.	.	.
.	.	.	.	.	.	.	8e\	.	8g/	.	.	.	.	.	.	.	.	.	.	.	.	.	.	.	.	.	.
.	.	.	.	8B-\	-ter,	.	8e\J	.	8g/J	.	.	.	.	.	.	.	.	.	.	.	.	.	.	.	.	.	.
*	*	*	*	*	*	*	*	*	*Xtremolo	*	*	*	*	*	*	*	*	*	*	*	*	*	*	*	*	*	*
*	*	*	*	*	*	*	*	*	*	*	*	*	*	*	*	*	*	*	*	*	*	*	*	*	*v	*v	*
=44	=44	=44	=44	=44	=44	=44	=44	=44	=44	=44	=44	=44	=44	=44	=44	=44	=44	=44	=44	=44	=44	=44	=44	=44	=44	=44
*	*	*	*	*	*	*	*	*	*	*	*2/right	*	*	*	*	*	*	*	*	*	*	*	*	*	*	*
!LO:TX:t=Col Cello	!	!	!	!	!	!	!	!	!	!	!	!	!	!	!	!	!	!	!	!	!	!	!	!	!	!
4.F\yy	.	4.F\	.	([4.A\	San-	.	8e-X\L	p	(8f/L	.	2.a/	.	1.r	.	1.r	.	(2.cc/]	(>2.cc\	.	(<2.e-/	1.r	.	1.r	.	4aa\)	.
.	.	.	.	.	.	.	8e-\	.	8c/)	.	.	.	.	.	.	.	.	.	.	.	.	.	.	.	.	.
.	.	.	.	.	.	.	8e-\	.	8c'/J	.	.	.	.	.	.	.	.	.	.	.	.	.	.	.	8r	.
*	*	*	*	*	*	*	*	*	*tremolo	*	*	*	*	*	*	*	*	*	*	*	*	*	*	*	*	*
4.F#X\yy	.	4.F#X\	.	8A\L]	.	.	8e-\	.	8c/L	.	.	.	.	.	.	.	.	.	.	.	.	.	.	.	4r	.
.	.	.	.	16B-\L	.	.	8e-\	.	8c/	.	.	.	.	.	.	.	.	.	.	.	.	.	.	.	.	.
.	.	.	.	16A\	.	.	.	.	.	.	.	.	.	.	.	.	.	.	.	.	.	.	.	.	.	.
.	.	.	.	16G\	.	.	8e-\J	.	8c/J	.	.	.	.	.	.	.	.	.	.	.	.	.	.	.	8r	.
.	.	.	.	16A\JJ	.	.	.	.	.	.	.	.	.	.	.	.	.	.	.	.	.	.	.	.	.	.
!	!	!	!	!	!	!	!	!	!	!	!	!	!	!	!	!	!	!	!	!	!	!	!	!	!LO:N:vis=2	!
4.G\yy	.	4.G\	.	4.B-\)	.	.	8d\L	.	8B-/L	.	4.b-/	.	.	.	.	.	8b-/)	8b-\)	.	8d/)	.	.	.	.	2.r	.
.	.	.	.	.	.	.	8d\	.	8B-/	.	.	.	.	.	.	.	8r	8ryy	.	8r	.	.	.	.	.	.
.	.	.	.	.	.	.	8d\J	.	8B-/	.	.	.	.	.	.	.	8r	8ryy	.	8r	.	.	.	.	.	.
4.D\yy	.	4.D\	.	4.F#X\	-cta	.	8B-/L	.	8B-/	.	4.f#X/	.	.	.	.	.	4r	4ryy	.	4r	.	.	.	.	.	.
.	.	.	.	.	.	.	8B-/	.	8B-/	.	.	.	.	.	.	.	.	.	.	.	.	.	.	.	.	.
.	.	.	.	.	.	.	8B-/J	.	8B-/J	.	.	.	.	.	.	.	8r	8ryy	.	8r	.	.	.	.	.	.
*	*	*	*	*	*	*	*	*	*	*	*	*	*	*	*	*	*v	*v	*	*	*	*	*	*	*	*
*	*	*	*	*	*	*	*	*	*	*	*	*	*	*	*	*	*	*	*v	*v	*	*	*	*	*
=45	=45	=45	=45	=45	=45	=45	=45	=45	=45	=45	=45	=45	=45	=45	=45	=45	=45	=45	=45	=45	=45	=45	=45	=45
4E-\yy	.	4E-\	.	[4.A\	De-	.	8B-/L	.	8e-/L	.	[4.a/	.	1.r	.	1.r	.	1.r	.	1.r	.	1.r	.	1.r	.
.	.	.	.	.	.	.	8B-/	.	8e-/	.	.	.	.	.	.	.	.	.	.	.	.	.	.	.
8ryy	.	8r	.	.	.	.	8B-/J	.	8e-/	.	.	.	.	.	.	.	.	.	.	.	.	.	.	.
(y<2.C/yy	.	(<2.C/	.	4A\]	.	.	8c\L	.	8e-/	.	4a/]	.	.	.	.	.	.	.	.	.	.	.	.	.
.	.	.	.	.	.	.	8c\	.	8e-/	.	.	.	.	.	.	.	.	.	.	.	.	.	.	.
.	.	.	.	8G\	-i	.	8c\J	.	8e-/J	.	8g/	.	.	.	.	.	.	.	.	.	.	.	.	.
!	!	!	!	!	!	!	!	!	!LO:TX:b:t=ritard.	!	!LO:TX:a:t=colla parti.	!	!	!	!	!	!	!	!	!	!	!	!	!
.	.	.	.	[4.e-\	ge-	.	8c\L	.	8e-/L	.	4.G/	.	.	.	.	.	.	.	.	.	.	.	.	.
.	.	.	.	.	.	.	8c\	.	8e-/	.	.	.	.	.	.	.	.	.	.	.	.	.	.	.
.	.	.	.	.	.	.	8c\J	.	8e-/J	.	.	.	.	.	.	.	.	.	.	.	.	.	.	.
!LO:TX:b:t=ritard.	!	!LO:TX:b:t=ritard.	!	!	!	!	!	!	!	!	!	!	!	!	!	!	!	!	!	!	!	!	!LO:TX:a:t=dolcissimo	!
4F\)yy	.	4F\)	.	4e-\]	.	.	8c\L	.	8e-/L	.	4.An/	.	.	.	.	.	.	.	.	.	.	.	.	.
!	!	!	!	!	!	!	!	!	!	!	!	!	!	!	!	!	!	!	!	!	!	!	!LO:TX:a:t=Soli.	!
.	.	.	.	.	.	.	8c\	.	8e-/	.	.	.	.	.	.	.	.	.	.	.	.	.	.	.
8ryy	.	8r	.	8A\	-ni-	.	8c\J	.	8e-/J	.	.	.	.	.	.	.	.	.	.	.	.	.	.	.
*	*	*	*	*	*	*	*Xtremolo	*	*Xtremolo	*	*	*	*	*	*	*	*	*	*	*	*	*	*	*
=46||	=46||	=46||	=46||	=46||	=46||	=46||	=46||	=46||	=46||	=46||	=46||	=46||	=46||	=46||	=46||	=46||	=46||	=46||	=46||	=46||	=46||	=46||	=46||	=46||
*	*	*	*	*	*	*	*	*	*	*	*	*	*	*	*	*	*^	*	*	*	*	*	*	*
*tremolo	*	*	*	*	*	*	*	*	*	*	*	*	*	*	*	*	*	*	*	*	*	*	*	*	*
!LO:TX:b:t=a tempo	!	!LO:TX:b:t=a tempo	!	!	!	!	!	!	!	!	!	!	!LO:SIC:v:s=4BB-/	!	!	!	!	!	!LO:DY:rj	!	!	!	!	!LO:TX:a:t=a tempo.	!
8BB-/Lyy	.	8BB-/L	.	4B-\	-trix	.	4B-/	.	8d/L	.	8B-/L	.	4BB/	pp	1.r	.	2.b-/	[1.B-	pp	1.r	.	1.r	.	([4.dd [4.b-\	.
8BB-/yy	.	8BB-/	.	.	.	.	.	.	8B-|/	.	8d|/	.	.	.	.	.	.	.	.	.	.	.	.	.	.
8BB-/yy	.	8BB-/	.	8r	.	.	8r	.	8B-|/J	.	8d|/J	.	8r	.	.	.	.	.	.	.	.	.	.	.	.
!	!	!	!	!	!	!	!	!	!	!	!	!	!LO:SIC:v:s=4BB-/	!	!	!	!	!	!	!	!	!	!	!	!
8BB-/yy	.	8BB-/	.	4r	.	.	2.F^/	.	8B-|/L	.	8d|/L	.	4BB/	.	.	.	.	.	.	.	.	.	.	8dd]L 8b-\]	.
8BB-/yy	.	8BB-/	.	.	.	.	.	.	8c|/	.	8e-|/	.	.	.	.	.	.	.	.	.	.	.	.	8ee- 8cc\	.
8BB-/Jyy	.	8BB-/J	.	8r	.	.	.	.	8c#X|/J	.	8en|/J	.	8r	.	.	.	.	.	.	.	.	.	.	8eenJ 8cc#X\	.
!	!	!	!	!	!	!	!	!	!	!	!	!	!LO:SIC:v:s=4BB-/	!	!	!	!	!	!	!	!	!	!	!	!
8BB-/Lyy	.	8BB-/L	.	2.r	.	.	.	.	8d|/L	.	8f|/L	.	4BB/	.	.	.	(2.ff/	.	.	.	.	.	.	8ffL 8dd|\)	.
8BB-/yy	.	8BB-/	.	.	.	.	.	.	8e-|/	.	8g|/	.	.	.	.	.	.	.	.	.	.	.	.	8gg 8ee-X|\	.
!	!	!	!	!	!	!	!	!	!	!	!	!	!	!	!	!	!	!	!	!	!	!	!	!LO:SIC:v:n=2:s=8ccn	!
!	!	!	!	!	!	!	!	!	!	!	!	!	!	!	!	!	!	!	!	!	!	!	!	!LO:TX:b:t=c	!
8BB-/yy	.	8BB-/	.	.	.	.	.	.	8cn/J	.	8a|/J	.	8r	.	.	.	.	.	.	.	.	.	.	8aaJ 8cc#|\	.
!	!	!	!	!	!	!	!	!	!	!	!	!	!LO:SIC:v:s=4BB-/	!	!	!	!	!	!	!	!	!	!	!LO:TX:b:t=f.	!
8BB-/yy	.	8BB-/	.	.	.	.	(4.F^/	.	8d/L	.	8b-|/L	.	4BB/	.	.	.	.	.	.	.	.	.	.	8bb-L 8dd|\	.
!	!	!	!	!	!	!	!	!	!	!	!	!	!	!	!	!	!	!	!	!	!	!	!	!LO:SIC:v:n=2:s=8ff	!
!	!	!	!	!	!	!	!	!	!	!	!	!	!	!	!	!	!	!	!	!	!	!	!	!LO:TX:b:t=g.	!
8BB-/yy	.	8BB-/	.	.	.	.	.	.	8f/	.	8cc|/	.	.	.	.	.	.	.	.	.	.	.	.	8ccc 8gg|\	.
8BB-/Jyy	.	8BB-/J	.	.	.	.	.	.	8b-|/J	.	8dd|/J	.	8r	.	.	.	.	.	.	.	.	.	.	8dddJ 8bb-|\	.
!!LO:PB:g=original
=47	=47	=47	=47	=47	=47	=47	=47	=47	=47	=47	=47	=47	=47	=47	=47	=47	=47	=47	=47	=47	=47	=47	=47	=47	=47
*	*	*	*	*	*	*	*	*	*	*	*	*	*	*	*^	*	*	*	*	*	*	*	*	*	*
*	*	*	*	*	*	*	*	*	*tremolo	*	*tremolo	*	*	*	*	*	*	*	*	*	*	*	*	*	*	*
!	!	!	!	!	!	!	!LO:TX:t=P:problem=brak zakończenia łuku	!LO:DY:t=sf.	!	!	!	!	!LO:SIC:v:s=4BB-/	!	!	!	!LO:DY:rj	!LO:TX:t=P:problem=brak zakończenia łuku	!LO:N:vis=1	!	!	!	!	!	!	!LO:DY:t=sf.
8BB-/Lyy	.	8BB-/L	.	1.r	.	.	(2.G-X/)	sf	8cc\L	.	8ee-\L	.	4BB/	.	[4.b- [<4.B-/	4.ryy	p	[2.ee-/)	1.B-_	.	1.r	.	(2.g-X/	sf	[4.eee- [4.ccc\	sf
8BB-/yy	.	8BB-/	.	.	.	.	.	.	8cc\	.	8ee-\	.	.	.	.	.	.	.	.	.	.	.	.	.	.	.
8BB-/yy	.	8BB-/	.	.	.	.	.	.	8cc\J	.	8ee-\J	.	8r	.	.	.	.	.	.	.	.	.	.	.	.	.
*	*	*	*	*	*	*	*	*	*Xtremolo	*	*Xtremolo	*	*	*	*	*	*	*	*	*	*	*	*	*	*	*
!	!	!	!	!	!	!	!	!	!	!	!	!	!LO:SIC:v:s=4BB-/	!	!	!	!	!	!	!	!	!	!	!	!	!
8BB-/yy	.	8BB-/	.	.	.	.	.	.	8cc'\L	.	8ee-'\L	.	4BB/	.	4b-] 4B-/]	8ryy	.	.	.	.	.	.	.	.	8eee-]L 8ccc\]	.
!	!	!	!	!	!	!	!	!	!	!	!	!	!	!	!	!	!	!	!	!	!	!	!	!	!LO:TX:b:i:t=dolcissimo.	!
8BB-/yy	.	8BB-/	.	.	.	.	.	.	8bn'\	.	8dd'\	.	.	.	.	8ryy	.	.	.	.	.	.	.	.	8ddd 8bbn'\	.
8BB-/Jyy	.	8BB-/J	.	.	.	.	.	.	8b-X'\J	.	8dd-X'\J	.	8r	.	8B-/	8B-\	.	.	.	.	.	.	.	.	8ddd-XJ 8bb-X'\	.
!	!	!	!	!	!	!	!	!	!	!	!	!	!LO:SIC:v:s=4BB-/	!	!	!	!	!	!	!	!	!	!	!	!	!
8BB-/Lyy	.	8BB-/L	.	.	.	.	8F/)	.	8a'/L	.	8cc'\L	.	4BB/	.	8B-/	8B-\	.	8ee-/]	.	.	.	.	4f/)	.	8cccL 8aa'\	.
8BB-/yy	.	8BB-/	.	.	.	.	8r	.	8a-X'/	.	8cc-X'\	.	.	.	8r	8ryy	.	8r	.	.	.	.	.	.	8ccc-X 8aa-X'\	.
8BB-/yy	.	8BB-/	.	.	.	.	8r	.	8g'/J	.	8b-'\J	.	8r	.	8r	8ryy	.	8r	.	.	.	.	8r	.	8bb-J 8gg'\	.
!	!	!	!	!	!	!	!	!	!	!	!	!	!LO:SIC:v:s=4BB-/	!	!	!	!	!	!	!	!	!	!	!	!LO:SIC:v:n=1:s=8aan	!
8BB-/yy	.	8BB-/	.	.	.	.	4r	.	8f#X'/L	.	8a'/L	.	4BB/	.	4r	4ryy	.	[4.f/	.	.	.	.	4r	.	8aa-L 8ff#X'\	.
8BB-/yy	.	8BB-/	.	.	.	.	.	.	8fn'/	.	8a-X'/	.	.	.	.	.	.	.	.	.	.	.	.	.	8aa-X 8ffn'\	.
!	!	!	!	!	!	!	!	!	!	!	!	!	!	!	!	!	!	!	!	!	!LO:TX:a:t=Soli	!	!	!	!	!
8BB-/Jyy	.	8BB-/J	.	.	.	.	8r	.	8e-X'/J	.	8g-X'/J	.	8r	.	8r	8ryy	.	.	.	.	.	p	8r	.	8gg-XJ 8ee-X\	.
*	*	*	*	*	*	*	*	*	*	*	*	*	*	*	*v	*v	*	*	*	*	*	*	*	*	*	*
=48	=48	=48	=48	=48	=48	=48	=48	=48	=48	=48	=48	=48	=48	=48	=48	=48	=48	=48	=48	=48	=48	=48	=48	=48	=48
!	!	!	!	!	!	!	!LO:TX:b:t=pizzi.	!	!	!	!	!	!LO:SIC:v:s=4BB-/	!	!	!	!	!	!	!	!	!	!	!	!
8BB-/Lyy	.	8BB-/L	.	([4.F\	Sanc-	.	8F/	.	8d/	.	(8f/L	.	4BB/	.	1.r	.	1.f]	1.B-]	.	([4.dd [4.f/	.	1.r	.	8ff 8dd\	.
8BB-/yy	.	8BB-/	.	.	.	.	8r	.	8r	.	8dd/	.	.	.	.	.	.	.	.	.	.	.	.	8r	.
!	!	!	!	!	!	!	!	!	!LO:TX:a:t=pizzi.	!	!	!	!	!	!	!	!	!	!	!	!	!	!	!	!
8BB-/yy	.	8BB-/	.	.	.	.	8r	.	8r	.	8b-/J)	.	8r	.	.	.	.	.	.	.	.	.	.	8r	.
!	!	!	!	!	!	!	!	!	!	!	!	!	!LO:SIC:v:s=4BB-/	!	!	!	!	!	!	!	!	!	!	!	!
8BB-/yy	.	8BB-/	.	8F\L]	.	.	8F/	.	8f 8B-/	.	8f'/	.	4BB/	.	.	.	.	.	.	8dd]L 8f/]	.	.	.	4r	.
8BB-/yy	.	8BB-/	.	8D\	.	.	8r	.	8r	.	8r	.	.	.	.	.	.	.	.	8ff 8a/	.	.	.	.	.
8BB-/Jyy	.	8BB-/J	.	8E-\J	.	.	8r	.	8r	.	8r	.	8r	.	.	.	.	.	.	8ee-J 8g/)	.	.	.	8r	.
!	!	!	!	!	!	!	!	!	!	!	!	!	!LO:SIC:v:s=4BB-/	!	!	!	!	!	!	!	!	!	!	!	!
8BB-/Lyy	.	8BB-/L	.	8F\L	.	.	8B- 8F/	.	8f 8B-/	.	2.r	.	4BB/	.	.	.	.	.	.	8ddL 8f'/	.	.	.	2.r	.
8BB-/yy	.	8BB-/	.	8G\	.	.	8r	.	8r	.	.	.	.	.	.	.	.	.	.	8cc#X 8eX'/	.	.	.	.	.
8BB-/Jyy	.	8BB-/J	.	8A\J	.	.	8r	.	8r	.	.	.	8r	.	.	.	.	.	.	8ccJ 8e-'/	.	.	.	.	.
!	!	!	!	!	!	!	!	!	!	!	!	!	!LO:SIC:v:s=4BB-/	!	!	!	!	!	!	!	!	!	!	!	!
8BB-/Lyy	.	8BB-/L	.	8B-\L	.	.	8B- 8F/	.	8f 8B-/	.	.	.	4BB/	.	.	.	.	.	.	8b-L 8d'/	.	.	.	.	.
8BB-/yy	.	8BB-/	.	8c\J)	.	.	8r	.	8r	.	.	.	.	.	.	.	.	.	.	8a 8c'/	.	.	.	.	.
8BB-/Jyy	.	8BB-/J	.	8d\	-ta	.	8r	.	8r	.	.	.	8r	.	.	.	.	.	.	8gJ 8B-'/	.	.	.	.	.
=49	=49	=49	=49	=49	=49	=49	=49	=49	=49	=49	=49	=49	=49	=49	=49	=49	=49	=49	=49	=49	=49	=49	=49	=49	=49
*	*	*	*	*	*	*	*	*	*	*	*	*	*	*	*	*	*	*	*	*^	*	*	*	*	*
*	*	*	*	*	*	*	*	*	*	*	*	*	*rep	*	*	*	*	*	*	*	*	*	*	*	*	*
!	!	!	!	!	!	!	!	!	!	!	!	!	!LO:SIC:v:s=4BB-/	!	!	!	!	!LO:N:vis=1	!	!	!	!	!	!	!	!
8BB-/Lyy	.	8BB-/L	.	([4.e-\	Sanc-	.	8e- 8c\	.	8f 8A/	.	(4f/	.	4BB/	.	1.r	.	(1.f	[1.B-	.	(1.e-	(1.c	.	1.r	.	1.r	.
8BB-/yy	.	8BB-/	.	.	.	.	8r	.	8r	.	.	.	.	.	.	.	.	.	.	.	.	.	.	.	.	.
8BB-/yy	.	8BB-/	.	.	.	.	8r	.	8r	.	8a/	.	8r	.	.	.	.	.	.	.	.	.	.	.	.	.
!	!	!	!	!	!	!	!	!	!	!	!	!	!LO:SIC:v:s=4BB-/	!	!	!	!	!	!	!	!	!	!	!	!	!
8BB-/yy	.	8BB-/	.	8e-\L]	.	.	8e- 8c\	.	8f 8A/	.	8cc'\)	.	4BB/	.	.	.	.	.	.	.	.	.	.	.	.	.
8BB-/yy	.	8BB-/	.	8d\J)	.	.	8r	.	8r	.	8.r	.	.	.	.	.	.	.	.	.	.	.	.	.	.	.
8BB-/Jyy	.	8BB-/J	.	8c\	-ta	.	8r	.	8r	.	.	.	8r	.	.	.	.	.	.	.	.	.	.	.	.	.
.	.	.	.	.	.	.	.	.	.	.	16f/	.	.	.	.	.	.	.	.	.	.	.	.	.	.	.
!	!	!	!	!	!	!	!	!	!	!	!	!	!LO:SIC:v:s=4BB-/	!	!	!	!	!	!	!	!	!	!	!	!	!
8BB-/Lyy	.	8BB-/L	.	8d\L	De-	.	8e- 8c\	.	8f 8A/	.	(4f/	.	4BB/	.	.	.	.	.	.	.	.	.	.	.	.	.
8BB-/yy	.	8BB-/	.	8c\J	.	.	8r	.	8r	.	.	.	.	.	.	.	.	.	.	.	.	.	.	.	.	.
8BB-/yy	.	8BB-/	.	8B-\	-i	.	8r	.	8r	.	8a/)	.	8r	.	.	.	.	.	.	.	.	.	.	.	.	.
!	!	!	!	!	!	!	!	!	!	!	!	!	!LO:SIC:v:s=4BB-/	!	!	!	!	!	!	!	!	!	!	!	!	!
8BB-/yy	.	8BB-/	.	8A\L	ge-	.	8e- 8c\	.	8f 8A/	.	8cc'/	.	4BB/	.	.	.	.	.	.	.	.	.	.	.	.	.
8BB-/yy	.	8BB-/	.	8G\J	.	.	8r	.	8r	.	8.r	.	.	.	.	.	.	.	.	.	.	.	.	.	.	.
8BB-/Jyy	.	8BB-/J	.	8F\	-ni-	.	8r	.	8r	.	.	.	8r	.	.	.	.	.	.	.	.	.	.	.	.	.
.	.	.	.	.	.	.	.	.	.	.	16f/	.	.	.	.	.	.	.	.	.	.	.	.	.	.	.
*	*	*	*	*	*	*	*	*	*	*	*	*	*Xrep	*	*	*	*	*	*	*	*	*	*	*	*	*
!!LO:PB:g=original
=50	=50	=50	=50	=50	=50	=50	=50	=50	=50	=50	=50	=50	=50	=50	=50	=50	=50	=50	=50	=50	=50	=50	=50	=50	=50	=50
*	*	*	*	*	*	*	*	*	*tremolo	*	*tremolo	*	*	*	*	*	*	*	*	*	*	*	*	*	*	*
!	!	!	!	!	!	!	!LO:TX:b:t=arco.	!	!LO:TX:b:t=arco.	!	!	!	!LO:SIC:v:s=4BB-/	!	!	!	!LO:TX:t=P:problem=brak zakończenia łuku	!LO:TX:b:t=P:problem=brak zakończenia ligatury	!	!LO:TX:t=P:problem=brak zakończenia łuków	!	!	!	!	!	!
8BB-/Lyy	.	8BB-/L	.	4F\	-trix	.	[4.A-X^/	.	8d/L	.	8f/L	.	4BB/	.	1.r	.	(1.b-)	1.B-]	.	8d/)	8d\)	.	[4.a-X^/	.	[4.ff [4.dd^\	.
8BB-/yy	.	8BB-/	.	.	.	.	.	.	8d/	.	8f/	.	.	.	.	.	.	.	.	8r	8ryy	.	.	.	.	.
8BB-/yy	.	8BB-/	.	8r	.	.	.	.	8d/J	.	8f/J	.	8r	.	.	.	.	.	.	8r	8ryy	.	.	.	.	.
*	*	*	*	*	*	*	*	*	*Xtremolo	*	*Xtremolo	*	*rep	*	*	*	*	*	*	*	*	*	*	*	*	*
!	!	!	!	!	!	!	!	!	!	!	!	!	!LO:SIC:v:s=4BB-/	!	!	!	!	!	!	!	!	!	!	!	!	!
8BB-/yy	<	8BB-/	<	4r	.	.	8A-/L]	.	8d/L	.	8f/L	.	4BB/	<	.	.	.	.	.	4r	4ryy	.	8a-/L]	.	8ff]L 8dd\]	.
8BB-/yy	.	8BB-/	.	.	.	.	8G/	.	8B-/	.	8d/	<	.	.	.	.	.	.	<	.	.	.	8g/	<	8dd 8b-\	<
8BB-/Jyy	.	8BB-/J	.	8r	.	.	8G-X/J	<	8c/J	<	8e-/J	.	8r	.	.	.	.	.	.	8r	8ryy	.	8g-X/J	.	8ee-J 8cc\	.
*	*	*	*	*	*	*	*	*	*	*	*	*	*Xrep	*	*	*	*	*	*	*	*	*	*	*	*	*
*	*	*	*	*	*	*	*	*	*	*	*	*	*rep	*	*	*	*	*	*	*	*	*	*	*	*	*
!	!	!	!	!	!	!	!	!	!	!	!	!	!LO:SIC:v:s=4BB-/	!	!	!	!	!	!	!	!	!	!	!	!	!
8BB-/Lyy	.	8BB-/L	.	2.r	.	.	4.F/	.	8d/L	.	8f/L	.	4BB/	.	.	.	.	.	.	2.r	2.ryy	.	(4.f/	.	8ffL 8dd\	.
8BB-/yy	.	8BB-/	.	.	.	.	.	.	8e-/	.	8g/	.	.	.	.	.	.	.	.	.	.	.	.	.	8gg 8ee-\	.
8BB-/yy	.	8BB-/	.	.	.	.	.	.	8f/J	.	8a/J	.	8r	.	.	.	.	.	.	.	.	.	.	.	8aaJ 8ff\	.
*	*	*	*	*	*	*	*	*	*	*	*	*	*Xrep	*	*	*	*	*	*	*	*	*	*	*	*	*
*	*	*	*	*	*	*	*	*	*	*	*	*	*rep	*	*	*	*	*	*	*	*	*	*	*	*	*
!	!	!	!	!	!	!	!	!	!	!	!	!	!LO:SIC:v:s=4BB-/	!	!	!	!	!	!	!	!	!	!	!	!	!
8BB-/yy	.	8BB-/	.	.	.	.	4.B-/	[	8g/L	.	8b-\L	.	4BB/	.	.	.	.	.	.	.	.	.	4.b-\)	[	8bb-L 8gg\	.
8BB-/yy	.	8BB-/	.	.	.	.	.	.	8a/	[	8cc\	[	.	.	.	.	.	.	[	.	.	.	.	.	8ccc 8aa\	.
8BB-/Jyy	[[	8BB-/J	[[	.	.	.	.	.	8b-/J	.	8dd\J	.	8r	[	.	sf	.	.	.	.	.	.	.	.	8dddJ 8bb-\	[
*	*	*	*	*	*	*	*	*	*	*	*	*	*Xrep	*	*	*	*	*	*	*	*	*	*	*	*	*
=51	=51	=51	=51	=51	=51	=51	=51	=51	=51	=51	=51	=51	=51	=51	=51	=51	=51	=51	=51	=51	=51	=51	=51	=51	=51	=51
!	!LO:DY:t=sff.	!	!LO:DY:t=sff.	!	!	!	!	!LO:DY:rj:t=sf.	!	!	!	!	!LO:SIC:v:s=4.BB-/	!	!	!LO:HP:a	!	!LO:N:vis=1	!LO:DY:rj:t=sf.	!	!	!LO:DY:t=sff	!	!LO:DY:t=sff	!	!LO:DY:t=sff.
8BB-/Lyy	sfy	8BB-/L	sf	1.r	.	.	4.c-X^/	sf	[4.dd [4.f/	sf	[4.ff 4.dd\	sf	4.BBtt/	sf >	[4.f [4.F/	>	4.a-X/)	1.B-	sf	(4.a-X/	1.r	sf	(4.cc-X\	sf	[4.fff [4.ddd\	sf
8BB-/yy	.	8BB-/	.	.	.	.	.	.	.	.	.	.	.	.	.	.	.	.	.	.	.	.	.	.	.	.
8BB-/yy	.	8BB-/	.	.	.	.	.	.	.	.	.	.	.	.	.	.	.	.	.	.	.	.	.	.	.	.
!	!	!	!	!	!	!	!	!	!	!	!	!	!LO:SIC:v:s=8BB-/	!	!	!	!	!	!	!	!	!	!	!	!	!
8BB-/yy	>	8BB-/	>	.	.	.	4.B-/	>	8dd]L 8f/]	>	8ff]L 8dd\	>	8BB/	]	8f] 8F/]	]	4.g/	.	.	4.g/	.	>	4.b-\	>	8fff]L 8ddd\]	.
8BB-/yy	.	8BB-/	.	.	.	.	.	.	8cc/	.	8ee-'\	.	8r	.	8r	.	.	.	>	.	.	.	.	.	8eee- 8ccc\	.
8BB-/Jyy	.	8BB-/J	.	.	.	.	.	.	8b-/J	.	8dd'\J	.	8r	.	8r	.	.	.	.	.	.	.	.	.	8dddJ 8bb-\	>
!LO:TX:a:t=P:problem=złe wyświetlanie wartości rytmicznej tremolo	!	!LO:TX:a:t=P:problem=złe wyświetlanie wartości rytmicznej tremolo	!	!	!	!	!	!	!	!	!	!	!	!	!	!	!	!	!	!	!	!	!	!	!	!
!LO:N:TREM:vis=2	!	!LO:N:TREM:vis=2	!	!	!	!	!	!	!	!	!	!	!LO:SIC:v:s=4BB-/	!	!	!	!	!	!	!	!	!	!	!	!	!
8BB-/Lyy	.	8BB-/L	.	.	.	.	4.An/	.	8a/L	.	8cc'\L	.	4BB/	.	4r	.	4.g-X/	.	.	4.f#X/	.	.	4.an\	.	8cccL 8aa\	.
8BB-/yy	.	8BB-/	.	.	.	.	.	.	8a-X/	.	8cc-X'\	.	.	.	.	.	.	.	.	.	.	.	.	.	8ccc-X 8aa-X\	.
8BB-/yy	.	8BB-/	.	.	.	.	.	.	8g/J	.	8b-'\J	.	8r	.	8r	.	.	.	.	.	.	.	.	.	8bb-J 8gg\	]
!	!	!	!	!	!	!	!LO:SIC:v:s=4cn	!	!	!	!	!	!LO:SIC:v:s=4BB-/	!	!	!	!	!	!	!	!	!	!	!	!LO:SIC:v:n=1:s=8aan	!
8BB-/yy	]	8BB-/	]	.	.	.	4c-/	.	8f#X/L	.	8a'/L	.	4BB/	.	4r	.	[4.f/	.	.	4a/	.	]	4ccn\	]	8aa-L 8ff#X\	.
8BB-/yy	.	8BB-/	.	.	.	.	.	]	8fn/	]	8a-X'/	]	.	.	.	.	.	.	]	.	.	.	.	.	8aa-X 8ffn\	.
8BB-/Jyy	.	8BB-/J	.	.	.	.	8e-\	.	8e-X/J	.	8g-X'/J	.	8r	.	8r	.	.	.	p	8cc/)	.	pp	8ee-\)	.	8gg-XJ 8ee-X\	.
*	*	*	*	*	*	*	*	*	*	*	*	*	*	*	*	*	*	*	*	*v	*v	*	*	*	*	*
=52	=52	=52	=52	=52	=52	=52	=52	=52	=52	=52	=52	=52	=52	=52	=52	=52	=52	=52	=52	=52	=52	=52	=52	=52	=52
!	!	!	!	!	!	!	!	!LO:DY:rj	!	!	!	!LO:DY:rj	!LO:SIC:v:s=4BB-/	!	!	!	!	!	!	!	!	!	!	!	!
8BB-/Lyy	.	8BB-/L	.	([4.F\	Sanc-	.	8d\	p	4d/	p	(8f/L	p	4BB/	.	1.r	.	(1.f]	(1.B-	.	[4.dd [4.f/	.	8dd\	.	8ff 8dd\	.
8BB-/yy	.	8BB-/	.	.	.	.	8r	.	.	.	8dd/	.	.	.	.	.	.	.	.	.	.	8r	.	8r	.
!	!	!	!	!	!	!	!LO:TX:b:t=pizzi	!	!LO:TX:b:t=pizzi	!	!	!	!	!	!	!	!	!	!	!	!	!	!	!	!
8BB-/yy	.	8BB-/	.	.	.	.	8r	.	8r	.	8b-/J)	.	8r	.	.	.	.	.	.	.	.	8r	.	8r	.
!	!	!	!	!	!	!	!	!	!	!	!	!	!LO:SIC:v:s=4BB-/	!	!	!	!	!	!	!	!	!	!	!	!
8BB-/yy	.	8BB-/	.	8F\L]	.	.	8B- 8F/	.	8f 8B-/	.	4f/	.	4BB/	.	.	.	.	.	.	8dd]L 8f/]	.	4r	.	4r	.
8BB-/yy	.	8BB-/	.	8D\	.	.	8r	.	8r	.	.	.	.	.	.	.	.	.	.	8ff 8a'/	.	.	.	.	.
8BB-/Jyy	.	8BB-/J	.	8E-\J	.	.	8r	.	8r	.	8r	.	8r	.	.	.	.	.	.	8ee-J 8g'/	.	8r	.	8r	.
!	!	!	!	!	!	!	!	!	!	!	!	!	!LO:SIC:v:s=4BB-/	!	!	!	!	!	!	!	!	!	!	!	!
8BB-/Lyy	.	8BB-/L	.	8F\L	.	.	8B- 8F/	.	8f 8B-/	.	4r	.	4BB/	.	.	.	.	.	.	8ddL 8f'/	.	2.r	.	2.r	.
8BB-/yy	.	8BB-/	.	8G\	.	.	8r	.	8r	.	.	.	.	.	.	.	.	.	.	8cc#X 8eX'/	.	.	.	.	.
8BB-/Jyy	.	8BB-/J	.	8A\J	.	.	8r	.	8r	.	8r	.	8r	.	.	.	.	.	.	8ccJ 8e-'/	.	.	.	.	.
*Xtremolo	*	*Xtremolo	*	*	*	*	*	*	*	*	*	*	*	*	*	*	*	*	*	*	*	*	*	*	*
8F/Lyy	.	8F/L	.	8B-\L	.	.	8B- 8F/	.	8f 8B-/	.	4r	.	4r	.	.	.	.	.	.	8b-L 8d'/	.	.	.	.	.
8D/yy	.	8D/	.	8c\J)	.	.	8r	.	8r	.	.	.	.	.	.	.	.	.	.	8a 8c'/	.	.	.	.	.
8BB-/Jyy	.	8BB-/J	.	8d\	-ta	.	8r	.	8r	.	8r	.	8r	.	.	.	.	.	.	8gJ 8B-'/	.	.	.	.	.
!!LO:PB:g=original
=53	=53	=53	=53	=53	=53	=53	=53	=53	=53	=53	=53	=53	=53	=53	=53	=53	=53	=53	=53	=53	=53	=53	=53	=53	=53
!	!	!	!	!LO:N:vis=2.	!	!	!	!	!	!	!LO:TX:a:t=pizz	!	!	!	!	!	!LO:TX:t=P:problem=brak zakończenia łuków (początek pięciolinii)	!	!	!	!	!	!	!	!
4FF/yy	.	4FF/	.	[4e-;\	Ma-	.	4A 4F/	.	4e- 4c/	.	8f 8A/	.	1.r;	.	1.r;	.	1.cc;)	1.f)	.	1.e- 1.A;	.	1.r;	.	1.r;	.
.	.	.	.	.	.	.	.	.	.	.	8r	.	.	.	.	.	.	.	.	.	.	.	.	.	.
*	*	*	*	*rscale:2	*	*	*	*	*	*	*	*	*	*	*	*	*	*	*	*	*	*	*	*	*
8ryy	.	8r	.	16e-\L]	.	.	8r	.	8r	.	8r	.	.	.	.	.	.	.	.	.	.	.	.	.	.
.	.	.	.	16d\	.	.	.	.	.	.	.	.	.	.	.	.	.	.	.	.	.	.	.	.	.
4ryy	.	4r	.	16e-\	.	.	4r	.	4r	.	4r	.	.	.	.	.	.	.	.	.	.	.	.	.	.
.	.	.	.	16Bn\J	.	.	.	.	.	.	.	.	.	.	.	.	.	.	.	.	.	.	.	.	.
.	.	.	.	8qd/	.	.	.	.	.	.	.	.	.	.	.	.	.	.	.	.	.	.	.	.	.
.	.	.	.	16c\L	.	.	.	.	.	.	.	.	.	.	.	.	.	.	.	.	.	.	.	.	.
.	.	.	.	16B\	.	.	.	.	.	.	.	.	.	.	.	.	.	.	.	.	.	.	.	.	.
8ryy	.	8r	.	16c\	.	.	8r	.	8r	.	8r	.	.	.	.	.	.	.	.	.	.	.	.	.	.
.	.	.	.	16G#X\J	.	.	.	.	.	.	.	.	.	.	.	.	.	.	.	.	.	.	.	.	.
.	.	.	.	8qB-X/	.	.	.	.	.	.	.	.	.	.	.	.	.	.	.	.	.	.	.	.	.
!	!	!	!	!	!	!	!	!	!	!	!	!	!	!	!	!	!	!	!	!LO:TX:b:t=colla parte.	!	!	!	!	!
2.r;yy	.	2.r;	.	16A\L	.	.	2.r;	.	2.r;	.	2.r;	.	.	.	.	.	.	.	.	.	.	.	.	.	.
.	.	.	.	16G#\	.	.	.	.	.	.	.	.	.	.	.	.	.	.	.	.	.	.	.	.	.
.	.	.	.	16A\	.	.	.	.	.	.	.	.	.	.	.	.	.	.	.	.	.	.	.	.	.
.	.	.	.	16En\J	.	.	.	.	.	.	.	.	.	.	.	.	.	.	.	.	.	.	.	.	.
.	.	.	.	16F\	-ter	.	.	.	.	.	.	.	.	.	.	.	.	.	.	.	.	.	.	.	.
.	.	.	.	16r	.	.	.	.	.	.	.	.	.	.	.	.	.	.	.	.	.	.	.	.	.
*	*	*	*	*rscale:1	*	*	*	*	*	*	*	*	*	*	*	*	*	*	*	*	*	*	*	*	*
.	.	.	.	[4A\	San-	.	.	.	.	.	.	.	.	.	.	.	.	.	.	.	.	.	.	.	.
.	.	.	.	16A\]	.	.	.	.	.	.	.	.	.	.	.	.	.	.	.	.	.	.	.	.	.
.	.	.	.	16Gn\	-cta	.	.	.	.	.	.	.	.	.	.	.	.	.	.	.	.	.	.	.	.
2.ryy	.	2.ryy	.	4G\	De-	.	2.ryy	.	2.ryy	.	2.ryy	.	2.ryy	.	2.ryy	.	2.ryy	2.ryy	.	2.ryy	.	2.ryy	.	2.ryy	.
.	.	.	.	8F\	-i	.	.	.	.	.	.	.	.	.	.	.	.	.	.	.	.	.	.	.	.
.	.	.	.	[4.f [4.F;\	ge-	.	.	.	.	.	.	.	.	.	.	.	.	.	.	.	.	.	.	.	.
4.ryy	.	4.ryy	.	4f] 4F\]	.	.	4.ryy	.	4.ryy	.	4.ryy	.	4.ryy	.	4.ryy	.	4.ryy	4.ryy	.	4.ryy	.	4.ryy	.	4.ryy	.
.	.	.	.	8A 8AA\	-ni-	.	.	.	.	.	.	.	.	.	.	.	.	.	.	.	.	.	.	.	.
=54	=54	=54	=54	=54	=54	=54	=54	=54	=54	=54	=54	=54	=54	=54	=54	=54	=54	=54	=54	=54	=54	=54	=54	=54	=54
*	*	*	*	*	*	*	*	*	*	*	*	*	*	*	*	*	*	*	*	*^	*	*	*	*	*
*	*	*	*	*	*	*	*tremolo	*	*tremolo	*	*	*	*	*	*	*	*	*	*	*	*	*	*	*	*	*
!	!	!	!	!	!	!	!LO:TX:b:t=arco	!	!LO:TX:a:t=arco	!	!	!	!	!	!	!	!	!	!	!	!	!	!	!	!	!
(y2.BB-/yy	.	(2.BB-/	.	4B- 4BB-/	-trix	.	8dL 8B-\	.	8dL 8B-/	.	1.r	.	1.ryy	.	1.ryy	.	1.b-	1.B-	.	2.d [<2.B-/	4.ryy	.	1.r	.	1.r	.
.	.	.	.	.	.	.	8d 8B-\	.	8d 8B-/	.	.	.	.	.	.	.	.	.	.	.	.	.	.	.	.	.
.	.	.	.	8r	.	.	8d 8B-\	.	8d 8B-/	.	.	.	.	.	.	.	.	.	.	.	.	.	.	.	.	.
.	.	.	.	4r	.	.	8d 8B-\	.	8d 8B-/	.	.	.	.	.	.	.	.	.	.	.	4.ryy	.	.	.	.	.
.	.	.	.	.	.	.	8d 8B-\	.	8d 8B-/	.	.	.	.	.	.	.	.	.	.	.	.	.	.	.	.	.
.	.	.	.	8r	.	.	8d 8B-\	.	8d 8B-/	.	.	.	.	.	.	.	.	.	.	.	.	.	.	.	.	.
*	*	*	*	*	*	*	*	*	*	*	*	*	*	*	*	*	*	*	*	*	*2\right	*	*	*	*	*
4.D\yy	.	4.D\	.	2.r	.	.	8d 8B-\	.	8d 8B-/	.	.	.	.	.	.	.	.	.	.	4.f/	2.B-\]	.	.	.	.	.
.	.	.	.	.	.	.	8d 8B-\	.	8d 8B-/	.	.	.	.	.	.	.	.	.	.	.	.	.	.	.	.	.
.	.	.	.	.	.	.	8d 8B-\	.	8d 8B-/	.	.	.	.	.	.	.	.	.	.	.	.	.	.	.	.	.
4.G\)yy	.	4.G\)	.	.	.	.	8d 8B-\	.	8d 8B-/	.	.	.	.	.	.	.	.	.	.	4.b-/	.	.	.	.	.	.
.	.	.	.	.	.	.	8d 8B-\	.	8d 8B-/	.	.	.	.	.	.	.	.	.	.	.	.	.	.	.	.	.
.	.	.	.	.	.	.	8dJ 8B-\	.	8dJ 8B-/	.	.	.	.	.	.	.	.	.	.	.	.	.	.	.	.	.
=55	=55	=55	=55	=55	=55	=55	=55	=55	=55	=55	=55	=55	=55	=55	=55	=55	=55	=55	=55	=55	=55	=55	=55	=55	=55	=55
!	!	!	!	!	!	!	!	!	!	!	!LO:TX:b:t=arco	!	!	!	!	!	!	!	!	!	!	!	!	!	!	!
2.En\yy	.	2.En\	.	1.r	.	.	8B-/L	.	8c#X/L	.	2.gg\	.	1.ryy	.	1.ryy	.	2.dd-X/	2.b-\	.	[2.b-/	2.d-X\	.	1.r	.	(2.ggg\	.
.	.	.	.	.	.	.	8B-/	.	8c#/	.	.	.	.	.	.	.	.	.	.	.	.	.	.	.	.	.
.	.	.	.	.	.	.	8B-/	.	8c#/	.	.	.	.	.	.	.	.	.	.	.	.	.	.	.	.	.
.	.	.	.	.	.	.	8B-/	.	8c#/	.	.	.	.	.	.	.	.	.	.	.	.	.	.	.	.	.
.	.	.	.	.	.	.	8B-/	.	8c#/	.	.	.	.	.	.	.	.	.	.	.	.	.	.	.	.	.
.	.	.	.	.	.	.	8B-/J	.	8c#/J	.	.	.	.	.	.	.	.	.	.	.	.	.	.	.	.	.
2.F\yy	.	2.F\	.	.	.	.	8B-/L	.	8d/L	.	4.ff\	.	.	.	.	.	4.dd/	4.b-\	.	4.b-/]	4.d\	.	.	.	4.fff\	.
.	.	.	.	.	.	.	8B-/	.	8d/	.	.	.	.	.	.	.	.	.	.	.	.	.	.	.	.	.
.	.	.	.	.	.	.	8B-/J	.	8d/J	.	.	.	.	.	.	.	.	.	.	.	.	.	.	.	.	.
.	.	.	.	.	.	.	8c\L	.	8e-/L	.	4.a/	.	.	.	.	.	4.cc/	[4.f\	.	4.a/	4.e-\	.	.	.	4.aa\	.
.	.	.	.	.	.	.	8c\	.	8e-/	.	.	.	.	.	.	.	.	.	.	.	.	.	.	.	.	.
.	.	.	.	.	.	.	8c\J	.	8e-/J	.	.	.	.	.	.	.	.	.	.	.	.	.	.	.	.	.
*	*	*	*	*	*	*	*Xtremolo	*	*	*	*	*	*	*	*	*	*	*	*	*	*	*	*	*	*	*
=56	=56	=56	=56	=56	=56	=56	=56	=56	=56	=56	=56	=56	=56	=56	=56	=56	=56	=56	=56	=56	=56	=56	=56	=56	=56	=56
4BB-/	.	(2.BB-/	.	1.r	.	.	2.B-^/	.	8dL 8B-/	.	[4.b-/	.	1.ryy	.	1.ryy	.	1.b-	2.f\]	.	(1.b-	(1.d	.	1.r	.	[4.bb-\	.
.	.	.	.	.	.	.	.	.	8d 8B-/	.	.	.	.	.	.	.	.	.	.	.	.	.	.	.	.	.
8r	.	.	.	.	.	.	.	.	8d 8B-/	.	.	.	.	.	.	.	.	.	.	.	.	.	.	.	.	.
4r	.	.	.	.	.	.	.	.	8d 8B-/	.	4b-/]	.	.	.	.	.	.	.	.	.	.	.	.	.	8bb-\])	.
.	.	.	.	.	.	.	.	.	8d 8B-/	.	.	.	.	.	.	.	.	.	.	.	.	.	.	.	8r	.
8r	.	.	.	.	.	.	.	.	8d 8B-/	.	8r	.	.	.	.	.	.	.	.	.	.	.	.	.	8r	.
2.r	.	4.GG/	.	.	.	.	4.G/	.	8d 8B-/	.	4r	.	.	.	.	.	.	2.B-\	.	.	.	.	.	.	2.r	.
.	.	.	.	.	.	.	.	.	8d 8B-/	.	.	.	.	.	.	.	.	.	.	.	.	.	.	.	.	.
.	.	.	.	.	.	.	.	.	8d 8B-/	.	8r	.	.	.	.	.	.	.	.	.	.	.	.	.	.	.
!	!	!	!	!	!	!	!LO:SIC:v:s=4En	!	!	!	!	!	!	!	!	!	!	!	!	!	!	!	!	!	!	!
.	.	4.EEn/)	.	.	.	.	4.Dn/	.	8d 8B-/	.	4r	.	.	.	.	.	.	.	.	.	.	.	.	.	.	.
.	.	.	.	.	.	.	.	.	8d 8B-/	.	.	.	.	.	.	.	.	.	.	.	.	.	.	.	.	.
.	.	.	.	.	.	.	.	.	8dJ 8B-/	.	8r	.	.	.	.	.	.	.	.	.	.	.	.	.	.	.
*	*	*	*	*	*	*	*	*	*Xtremolo	*	*	*	*	*	*	*	*	*	*	*	*	*	*	*	*	*
=57	=57	=57	=57	=57	=57	=57	=57	=57	=57	=57	=57	=57	=57	=57	=57	=57	=57	=57	=57	=57	=57	=57	=57	=57	=57	=57
*	*	*	*	*	*	*	*	*	*	*	*	*	*	*	*	*	*v	*v	*	*	*	*	*	*	*	*
*	*	*	*	*	*	*	*tremolo	*	*	*	*	*	*	*	*	*	*	*	*	*	*	*	*	*	*
[2.F\	.	8FF/L	.	1.r	.	.	8F/L	.	(2.d/	.	(2.f/	.	1.ryy	.	1.ryy	.	(2.ff (2.dd\	.	8f/)	8f\)	.	1.r	.	1.r	.
.	.	8FF/	.	.	.	.	8F/	.	.	.	.	.	.	.	.	.	.	.	8r	8ryy	.	.	.	.	.
.	.	8FF/J	.	.	.	.	8F/	.	.	.	.	.	.	.	.	.	.	.	8r	8ryy	.	.	.	.	.
*	*	*tremolo	*	*	*	*	*	*	*	*	*	*	*	*	*	*	*	*	*	*	*	*	*	*	*
.	.	8FF/L	.	.	.	.	8F/	.	.	.	.	.	.	.	.	.	.	.	4r	4ryy	.	.	.	.	.
.	.	8FF/	.	.	.	.	8F/	.	.	.	.	.	.	.	.	.	.	.	.	.	.	.	.	.	.
.	.	8FF/J	.	.	.	.	8F/J	.	.	.	.	.	.	.	.	.	.	.	8r	8ryy	.	.	.	.	.
*	*	*Xtremolo	*	*	*	*	*Xtremolo	*	*	*	*	*	*	*	*	*	*	*	*	*	*	*	*	*	*
8F\]	.	8AA|/L	.	.	.	.	8A|/L	.	4c/)	.	4e-/)	.	.	.	.	.	8ee-) 8cc\)	.	2.r	2.ryy	.	.	.	.	.
8r	.	8GG|/	.	.	.	.	8G|/	.	.	.	.	.	.	.	.	.	8r	.	.	.	.	.	.	.	.
8F|\	.	8FF|/J	.	.	.	.	8F|/J	.	8r	.	8r	.	.	.	.	.	8r	.	.	.	.	.	.	.	.
8E-|\L	.	8E-X|/L	.	.	.	.	8F|/	.	8A'/	.	8A'/	.	.	.	.	.	8cc 8f\	.	.	.	.	.	.	.	.
8D|\	.	8D|/	.	.	.	.	8r	.	8r	.	8r	.	.	.	.	.	8r	.	.	.	.	.	.	.	.
8C|\J	.	8C|/J	.	.	.	.	8r	.	8r	.	8r	.	.	.	.	.	8r	.	.	.	.	.	.	.	.
*	*	*	*	*	*	*	*	*	*	*	*	*	*	*	*	*	*^	*	*v	*v	*	*	*	*	*
!!LO:PB:g=original
=58	=58	=58	=58	=58	=58	=58	=58	=58	=58	=58	=58	=58	=58	=58	=58	=58	=58	=58	=58	=58	=58	=58	=58	=58	=58
!	!	!	!	!	!	!	!	!	!	!	!	!	!LO:N:vis=1	!	!	!	!	!	!	!	!	!	!	!	!
!	!	!	!	!	!	!	!	!	!	!	!	!	!LO:SIC:v:s=1.BB-tt	!LO:DY:rj	!	!	!	!	!	!	!	!	!	!	!
2.BB-/	.	2.BB-/	.	1.r	.	.	2.B-^/	.	2.B-/	.	2.B-/	.	1.BBtt	p	1.r	.	2.b-/	2.b-\	.	2.r	.	1.r	.	1.r	.
2.D^\	.	2.D^\	.	.	.	.	2.A-X^/	.	2.B-^>/	.	2.f^/	.	.	.	.	.	2.b-^/	2.b-\	.	[2.f 2.A-X^>/	.	.	.	.	.
=59	=59	=59	=59	=59	=59	=59	=59	=59	=59	=59	=59	=59	=59	=59	=59	=59	=59	=59	=59	=59	=59	=59	=59	=59	=59
*	*	*	*	*	*	*	*	*	*	*	*	*	*	*	*	*	*	*	*	*	*	*	*	*^	*
!	!	!	!	!	!	!	!	!	!	!	!	!	!LO:N:vis=1	!	!	!	!	!	!	!	!	!	!	!	!	!
!	!	!	!	!	!	!	!	!	!	!	!	!	!LO:SIC:v:s=1.BB-ttt	!	!	!	!	!	!	!	!	!	!	!	!	!
[2.E-^\	.	2.E-^\	.	1.r	.	.	2.G/	.	2.B-^/	.	2.f^/	.	1.BBttt	.	1.r	.	2.b-^/	2.b-\	.	2.f] 2.B-^>/	.	2.r	.	2.b-/	2.b-\	.
2.E-\]	.	2.EE-^/	.	.	.	.	2.G-X^/	.	[2.B-^>/	.	2.e-^>/	.	.	.	.	.	2.b-^/	2.b-\	.	2.e- 2.G-X^>/	.	2.g-X^/	.	2.cc^/	2.an\	.
*	*	*	*	*	*	*	*	*	*	*	*	*	*	*	*	*	*	*	*	*	*	*	*	*v	*v	*
*	*	*	*	*	*	*	*	*	*	*	*	*	*	*	*	*	*v	*v	*	*	*	*	*	*	*
=60	=60	=60	=60	=60	=60	=60	=60	=60	=60	=60	=60	=60	=60	=60	=60	=60	=60	=60	=60	=60	=60	=60	=60	=60
!	!	!	!	!	!	!	!LO:N:vis=1	!	!	!	!	!	!LO:N:vis=1	!	!LO:N:vis=1	!	!	!	!LO:N:vis=1	!	!	!	!	!
!	!	!	!	!	!	!	!	!	!	!	!	!	!LO:SIC:v:s=1.BB-;	!	!	!	!	!	!	!	!	!	!	!
1.BB-^;	.	1.FF;	.	1.r;	.	.	1.D;	.	1.B-;]	.	1.d;	.	1.BB;	.	1.d; 1.B-	.	1.f; 1.d	.	1.d 1.B-;	.	1.f;	.	1.dd; 1.b-	.
==	==	==	==	==	==	==	==	==	==	==	==	==	==	==	==	==	==	==	==	==	==	==	==	==
*-	*-	*-	*-	*-	*-	*-	*-	*-	*-	*-	*-	*-	*-	*-	*-	*-	*-	*-	*-	*-	*-	*-	*-	*-
!!!system-decoration: (s1,s2,s3,s4,s5,s6,s7,s8,s9{s10}s11,s12)
!!!RDF**kern: > = above
!!!RDF**kern: < = below
!!!RDF**kern: | = vertical stroke
!!!RDF**kern: @ = marked note, color=red
!!!RDF**kern: j = marked note, color=blue
!!!RDF**dynam: p = "p."
!!!RDF**dynam: pp = "pp."
!!!RDF**dynam: fp = "fp."
!!!ENC: Marta Lawrence
!!!END: 2021-08-29
!!!ENC: Katarzyna Serwa
!!!END: 2021-08-03
!!!YEC: Copyright 2022 Narodowy Instytut Fryderyka Chopina (https://polishscores.org)
!!!YEM: Licence CC BY 4.0 (https://creativecommons.org/licenses/by/4.0)
